!!!!SEGMENT: pl-wtm--r-262-m_moniuszko-stanislaw--ecce-lignum-crucis.krn
!!!cenid: 18xx:2711
!!!COM: Moniuszko, Stanisław
!!!COM-rismID:
!!!CDT: 1819/05/05-1872/06/04
!!!CNT: Polish
!!!OTL: Ecce lignum crucis
!!!PDT:
!!!AGN:
!!!SMS-siglum: PL-Wtm
!!!SMS-shelfmark: R 262/M
!!!SMS-shelfwork: W
!!!SMS-variant:
!!!SMS-altvar:
!!!NIFC-rismSourceID: 1001091334
!!!NIFC-islandoraID:
!!!URL-pdf-islandora:
!!!URL-scan:
!!!ONB-nifc:
!!!OMD: Moderato, non troppo lento.
!!!AIN: 1 alto 2 empty 1 organ 1 soprn 1 tenor 1 timpa
!!!key:
**kern	**kern	**kern	**dynam	**kern	**text	**text	**dynam	**kern	**text	**text	**dynam	**kern	**text	**dynam	**kern	**text	**text	**dynam	**kern	**text	**dynam
*part7	*part6	*part6	*part6	*part5	*part5	*part5	*part5	*part4	*part4	*part4	*part4	*part3	*part3	*part3	*part2	*part2	*part2	*part2	*part1	*part1	*part1
*staff8	*staff7	*staff6	*	*staff5	*staff5	*staff5	*	*staff4	*staff4	*staff4	*	*staff3	*staff3	*	*staff2	*staff2	*staff2	*	*staff1	*staff1	*
*Itimpa	*Iorgan	*Iorgan	*	*Iempty	*	*	*	*Itenor	*	*	*	*Ialto	*	*	*Isoprn	*	*	*	*Iempty	*	*
*I"Timpano	*I"[Organ]	*I"[Organ]	*	*I"[Bass]	*	*	*	*I"[Tenor]	*	*	*	*I"[Alto]	*	*	*I"[Soprano]	*	*	*	*I"[Baritone Solo]	*	*
*clefF4	*clefF4	*clefG2	*	*clefF4	*	*	*	*clefG2	*	*	*	*clefG2	*	*	*clefG2	*	*	*	*clefG2	*	*
*	*	*	*	*	*	*	*	*ITrd7c12	*	*	*	*	*	*	*	*	*	*	*ITrd7c12	*	*
*	*k[b-]	*k[b-]	*	*k[b-]	*	*	*	*k[b-]	*	*	*	*k[b-]	*	*	*k[b-]	*	*	*	*k[b-]	*	*
*	*f#:	*f#:	*	*f#:	*	*	*	*f#:	*	*	*	*f#:	*	*	*f#:	*	*	*	*f#:	*	*
*M4/4	*M4/4	*M4/4	*	*M4/4	*	*	*	*M4/4	*	*	*	*M4/4	*	*	*M4/4	*	*	*	*M4/4	*	*
*met(c)	*met(c)	*met(c)	*	*met(c)	*	*	*	*met(c)	*	*	*	*met(c)	*	*	*met(c)	*	*	*	*met(c)	*	*
*all\right	*all\right	*all\right	*	*all\right	*	*	*	*all\right	*	*	*	*all\right	*	*	*all\right	*	*	*	*all\right	*	*
=1	=1	=1	=1	=1	=1	=1	=1	=1	=1	=1	=1	=1	=1	=1	=1	=1	=1	=1	=1	=1	=1
!LO:TX:t=P:problem=partia zapisana na dolnej pięciolinii org od taktu nr 126	!	!	!	!	!	!	!	!	!	!	!	!	!	!	!	!	!	!	!	!	!
1ryy	[1DD	2r<	.	1r	.	.	.	1r	.	.	.	1r	.	.	1r	.	.	.	1ryy	.	.
.	.	4AA</	.	.	.	.	.	.	.	.	.	.	.	.	.	.	.	.	.	.	.
.	.	4D</	.	.	.	.	.	.	.	.	.	.	.	.	.	.	.	.	.	.	.
=2	=2	=2	=2	=2	=2	=2	=2	=2	=2	=2	=2	=2	=2	=2	=2	=2	=2	=2	=2	=2	=2
1ryy	4DD\]	4F</	.	1r	.	.	.	1r	.	.	.	1r	.	.	1r	.	.	.	1ryy	.	.
.	8AA/L	8A</L	.	.	.	.	.	.	.	.	.	.	.	.	.	.	.	.	.	.	.
.	8D/J	8d</J	.	.	.	.	.	.	.	.	.	.	.	.	.	.	.	.	.	.	.
.	4F\	4f\	.	.	.	.	.	.	.	.	.	.	.	.	.	.	.	.	.	.	.
.	4A\	4a\	.	.	.	.	.	.	.	.	.	.	.	.	.	.	.	.	.	.	.
=3	=3	=3	=3	=3	=3	=3	=3	=3	=3	=3	=3	=3	=3	=3	=3	=3	=3	=3	=3	=3	=3
*	*^	*	*	*	*	*	*	*	*	*	*	*	*	*	*	*	*	*	*	*	*
*	*2\right	*	*	*	*	*	*	*	*	*	*	*	*	*	*	*	*	*	*	*	*	*
!	!	!	!	!	!	!	!	!LO:DY:a:rj	!	!	!	!LO:DY:a:rj	!	!	!LO:DY:a:rj	!	!	!	!LO:DY:a:rj	!	!	!
1ryy	4.d 4.D/	2DD\	4.dd\	.	4.D\	.	.	p	4.d\	.	.	p	4.dd\	.	p	4.dd\	Ec-	.	p	1ryy	.	.
.	8F/	.	8f/	.	8F\	.	.	.	8F/	.	.	.	8f/	.	.	8f/	-ce	.	.	.	.	.
.	4F/	4FF\	4f/	.	4F\	.	.	.	4F/	.	.	.	4f/	.	.	4f/	li-	.	.	.	.	.
.	4A/	4AA\	4a/	.	4A\	.	.	.	4A/	.	.	.	4a/	.	.	4a/	-gnum	.	.	.	.	.
=4	=4	=4	=4	=4	=4	=4	=4	=4	=4	=4	=4	=4	=4	=4	=4	=4	=4	=4	=4	=4	=4	=4
*	*	*	*	*	*2\right	*	*	*	*	*	*	*	*	*	*	*	*	*	*	*	*	*
1ryy	2A/	2AA\	2a/	.	2A\	.	.	.	2A/	.	.	.	2a/	.	.	2a/	cru-	.	.	1ryy	.	.
.	4.D/	4D\	4.d/	.	8D\	.	.	.	8D/	.	.	.	8d/	.	.	8d/	-cis	.	.	.	.	.
.	.	.	.	.	8r	.	.	.	8r	.	.	.	8r	.	.	8r	.	.	.	.	.	.
.	.	4r	.	.	8D\	.	.	.	8D/	.	.	.	8d/	.	.	8d/	in	.	.	.	.	.
.	8F/	.	8f/	.	8F\	.	.	.	8F/	.	.	.	8f/	.	.	8f/	quo	.	.	.	.	.
=5	=5	=5	=5	=5	=5	=5	=5	=5	=5	=5	=5	=5	=5	=5	=5	=5	=5	=5	=5	=5	=5	=5
*	*	*	*^	*	*	*	*	*	*	*	*	*	*	*	*	*	*	*	*	*	*	*
1ryy	2A/	2r	2a/	2ryy	.	4A\	.	.	.	4A/	.	.	.	4a/	.	.	4a/	sa-	.	.	1ryy	.	.
.	.	.	.	.	.	4A\	.	.	.	4A/	.	.	.	4a/	.	.	4a/	-lus	.	.	.	.	.
.	2F/	2AA\	4cc/	4.c\	.	4AA/	.	.	.	4F/	.	.	.	4c/	.	.	4cc\	mun-	.	.	.	.	.
.	.	.	8b-/L	.	.	8AA/	.	.	.	8F/	.	.	.	8c/	.	.	8b-\	-di	.	.	.	.	.
.	.	.	8a/J	8f\	.	8AA/	.	.	.	8c\	.	.	.	8f/	.	.	8a/	pe-	.	.	.	.	.
=6	=6	=6	=6	=6	=6	=6	=6	=6	=6	=6	=6	=6	=6	=6	=6	=6	=6	=6	=6	=6	=6	=6	=6
*	*	*	*2\right	*	*	*	*	*	*	*2\right	*	*	*	*	*	*	*	*	*	*	*	*	*
1ryy	2c/	2C\	2g/	4f\	.	2C/	.	.	.	2c\	.	.	.	(4f/	.	.	2g/	-pen-	.	.	1ryy	.	.
.	.	.	.	4e\	.	.	.	.	.	.	.	.	.	4e/)	.	.	.	.	.	.	.	.	.
.	2B- 2G/	2GG\	2b-/	2e-X\	.	8GG/	.	.	.	8B-\	.	.	.	8e-X/	.	.	8b-\	-dit.	.	.	.	.	.
.	.	.	.	.	.	8r	.	.	.	8r	.	.	.	8r	.	.	8r	.	.	.	.	.	.
.	.	.	.	.	.	4G\	.	.	.	4B-\	.	.	.	4e-/	.	.	4b-/	Ve-	.	.	.	.	.
!!LO:LB:g=original
=7	=7	=7	=7	=7	=7	=7	=7	=7	=7	=7	=7	=7	=7	=7	=7	=7	=7	=7	=7	=7	=7	=7	=7
1ryy	2F/	1BB-	4.b-/	2.d\	.	4.BB-/	.	.	.	4.F/	.	.	.	4.d/	.	.	4.b-\	-ni-	.	.	1ryy	.	.
.	.	.	8f/	.	.	8BB-/	.	.	.	8F/	.	.	.	8d/	.	.	8f/	-te,	.	.	.	.	.
.	2B-/	.	4g/	.	.	4BB-/	.	.	.	4B-\	.	.	.	4d/	.	.	4g/	a-	.	.	.	.	.
.	.	.	8f/L	8d\L	.	4BB-/	.	.	.	4d\	.	.	.	8d/L	.	.	8f/L	-do-	.	.	.	.	.
.	.	.	8g/J	8e\J	.	.	.	.	.	.	.	.	.	8en/J	.	.	8g/J	.	.	.	.	.	.
*	*v	*v	*	*	*	*	*	*	*	*	*	*	*	*	*	*	*	*	*	*	*	*	*
=8	=8	=8	=8	=8	=8	=8	=8	=8	=8	=8	=8	=8	=8	=8	=8	=8	=8	=8	=8	=8	=8	=8
1ryy	4AA\	(2a 2f/	2c\	.	(4AA/	.	.	.	2.c\	.	.	.	(2f/	.	.	2a/	-re-	.	.	1ryy	.	.
.	4BB-\	.	.	.	4BB-/	.	.	.	.	.	.	.	.	.	.	.	.	.	.	.	.	.
.	8C\L	4g/	8e\L	.	8C/L	.	.	.	.	.	.	.	8e/L	.	.	4g/	-[[m]]-	.	.	.	.	.
.	8D\J	.	8d\J	.	8D/J	.	.	.	.	.	.	.	8d/J)	.	.	.	.	.	.	.	.	.
.	4E\	8c/)	8c\	.	4E\)	.	.	.	8c\	.	.	.	8c/	.	.	8cc\	-mus.	.	.	.	.	.
.	.	8r	8ryy	.	.	.	.	.	8r	.	.	.	8r	.	.	8r	.	.	.	.	.	.
*	*	*v	*v	*	*	*	*	*	*	*	*	*	*	*	*	*	*	*	*	*	*	*
=9	=9	=9	=9	=9	=9	=9	=9	=9	=9	=9	=9	=9	=9	=9	=9	=9	=9	=9	=9	=9	=9
*	*^	*	*	*	*	*	*	*	*	*	*	*	*	*	*	*	*	*	*	*	*
!	!	!	!	!	!LO:TX:a:t=A:color=red	!	!	!	!	!	!	!	!	!	!	!LO:TX:b:t=A:color=red	!	!	!	!	!	!
1ryy	2F/	4F\	2r	.	4.F\	Ec-	.	.	2r	.	.	.	1r	.	.	1r	.	.	.	1ryy	.	.
.	.	4r	.	.	.	.	.	.	.	.	.	.	.	.	.	.	.	.	.	.	.	.
.	.	.	.	.	8F\	-ce	.	.	.	.	.	.	.	.	.	.	.	.	.	.	.	.
.	4AA/	2r	4r	.	4AA/	[[lin-	li-	.	4r	.	.	.	.	.	.	.	.	.	.	.	.	.
.	4BB-/	.	4d/	.	4BB-/	-gum]]	-gnum	.	4d\	ve-	.	.	.	.	.	.	.	.	.	.	.	.
=10	=10	=10	=10	=10	=10	=10	=10	=10	=10	=10	=10	=10	=10	=10	=10	=10	=10	=10	=10	=10	=10	=10
1ryy	4C/	1r	2c/	.	(4C/	cru-	.	.	4.c\	-ni-	.	.	1r	.	.	1r	.	.	.	1ryy	.	.
.	8D\L	.	.	.	8D\L	.	.	.	.	.	.	.	.	.	.	.	.	.	.	.	.	.
.	8E\J	.	.	.	8E\J)	.	.	.	8G/	-te	.	.	.	.	.	.	.	.	.	.	.	.
.	4F\	.	4A</	.	4F\	.	.	.	4A/	a-	.	.	.	.	.	.	.	.	.	.	.	.
.	4F#X\	.	4d</	.	4F#X\	-cis	.	.	4c\	-do-	.	.	.	.	.	.	.	.	.	.	.	.
=11	=11	=11	=11	=11	=11	=11	=11	=11	=11	=11	=11	=11	=11	=11	=11	=11	=11	=11	=11	=11	=11	=11
*	*	*^	*^	*	*	*	*	*	*	*	*	*	*	*	*	*	*	*	*	*	*	*
1ryy	2d/	2.G\	1rGG	1r	2b-\	.	2.G\	ec-	.	.	(2d\	-re-	.	.	4.b-/	Ec-	.	1r	.	.	.	1ryy	.	.
.	.	.	.	.	.	.	.	.	.	.	.	.	.	.	8b-/	-ce	.	.	.	.	.	.	.	.
.	4B-/	.	.	.	4d\	.	.	.	.	.	4B-\)	.	.	.	4d/	li-	.	.	.	.	.	.	.	.
.	4A/	4C#X\	.	.	4e\	.	4C#X/	-ce	.	.	4A/	-mus,	.	.	4e/	-gnum	.	.	.	.	.	.	.	.
*	*	*v	*v	*	*	*	*	*	*	*	*	*	*	*	*	*	*	*	*	*	*	*	*	*
=12	=12	=12	=12	=12	=12	=12	=12	=12	=12	=12	=12	=12	=12	=12	=12	=12	=12	=12	=12	=12	=12	=12	=12
1ryy	1A 1D	1r	2dd/	2f\	.	2D\	li[[n]]-	.	.	4.A/	ec-	.	.	2f/	cru	.	4.dd\	Ec-	.	.	1ryy	.	.
.	.	.	.	.	.	.	.	.	.	8A/	-ce	.	.	.	.	.	8dd\	-ce	.	.	.	.	.
.	.	.	4f/	4d\	.	4D\	-gnum	.	.	4d\	[[lin-	li-	.	4f/	.	.	4f/	[[lin-	li-	.	.	.	.
.	.	.	8fL 8d/	4ryy	.	8r	.	.	.	8c\	-guis]]	-gnum	.	8d/	.	.	8f/	-guis]]	-gnum	.	.	.	.
.	.	.	8gJ 8e/	.	.	8D\	in	.	.	8c\	in	.	.	8e/	.	.	8g/	in	.	.	.	.	.
!!LO:PB:g=original
=13	=13	=13	=13	=13	=13	=13	=13	=13	=13	=13	=13	=13	=13	=13	=13	=13	=13	=13	=13	=13	=13	=13	=13
!	!	!	!	!	!	!	!	!	!LO:DY:a:rj	!	!	!	!	!	!	!	!	!	!	!LO:DY:a:rj	!	!	!
1ryy	2d/	1D 1DD	2a/	2f\	.	4D\	quo	.	f	4d\	quo	.	.	4f/	quo	.	4a/	quo	.	f	1ryy	.	.
*	*	*	*	*	*	*	*ij	*	*	*	*ij	*	*	*	*ij	*	*	*	*	*	*	*	*
.	.	.	.	.	.	8.D\	sa-	.	.	8.d\	sa-	.	.	8.f/	sa-	.	8.a/	sa-	.	.	.	.	.
.	.	.	.	.	.	16D\	-lus	.	.	16d\	-lus	.	.	16f/	-lus	.	16a/	-lus	.	.	.	.	.
.	4B-/	.	4g/	2d\	.	4B-\	mun-	.	.	4d\	mun-	.	.	4d/	mun-	.	4g/	mun-	.	.	.	.	.
.	8.A/L	.	8.f/L	.	.	8.A\	-di	.	.	8.d\	-di	.	.	8.d/	-di	.	8.f/	-di	.	.	.	.	.
.	16G/Jk	.	16g/Jk	.	.	16G\	pe-	.	.	16B-\	pe-	.	.	16d/	pe-	.	16g/	pe-	.	.	.	.	.
*	*	*	*v	*v	*	*	*	*	*	*	*	*	*	*	*	*	*	*	*	*	*	*	*
=14	=14	=14	=14	=14	=14	=14	=14	=14	=14	=14	=14	=14	=14	=14	=14	=14	=14	=14	=14	=14	=14	=14
!	!	!	!	!	!	!	!	!LO:DY:a:rj	!	!	!	!	!	!	!	!	!	!	!LO:DY:a:rj	!	!	!
1ryy	1A 1F	2DD\	1a 1d	>	2F\	-pen-	.	>	2A\	-pen-	.	>	2d/	-pen-	>	2a/	-pen-	.	>	1ryy	.	.
.	.	2D\	.	]	8F\	-dit,	.	]	8A\	-dit,	.	]	8d/	-dit,	]	8a/	-dit,	.	]	.	.	.
!	!	!	!	!LO:DY:t=pp.	!	!	!	!LO:DY:a	!	!	!	!	!	!	!	!	!	!	!	!	!	!
.	.	.	.	pp.	8r	.	.	pp	8r	.	.	.	8r	.	.	8r	.	.	.	.	.	.
!	!	!	!	!	!	!	!	!	!	!	!	!LO:DY:a:rj	!	!	!LO:DY:a:rj	!	!	!	!LO:DY:a:rj	!	!	!
.	.	.	.	.	4F\	in	.	.	4A/	in	.	pp	4d/	in	pp	4a/	in	.	pp	.	.	.
=15	=15	=15	=15	=15	=15	=15	=15	=15	=15	=15	=15	=15	=15	=15	=15	=15	=15	=15	=15	=15	=15	=15
*	*	*	*^	*	*	*	*	*	*	*	*	*	*	*	*	*	*	*	*	*	*	*
1ryy	2E\	2ryy	2a/	[2e 2c#X\	.	4E\	quo	.	.	4A/	quo	.	.	4c#X/	quo	.	4a/	quo	.	.	1ryy	.	.
.	.	.	.	.	.	8A\	sa-	.	.	8c#X\	sa-	.	.	8e/	sa-	.	8a/	sa-	.	.	.	.	.
.	.	.	.	.	.	8c#X\	-lus	.	.	8c#\	-lus	.	.	8e/	-lus	.	8a/	-lus	.	.	.	.	.
.	2Bn 2E/	2EE\	4g#X/	4e\]	.	4Bn\	mun-	.	.	4d\	mun-	.	.	4e/	mun-	.	4g#X/	mun-	.	.	.	.	.
.	.	.	8f#X/L	4d\	.	8E\	-di	.	.	8Bn\	-di	.	.	8d/	-di	.	8f#X/	-di	.	.	.	.	.
.	.	.	8g#/J	.	.	8E\	pe-	.	.	8B\	pe-	.	.	8d/	pe-	.	8g#/	pe-	.	.	.	.	.
*	*	*	*v	*v	*	*	*	*	*	*	*	*	*	*	*	*	*	*	*	*	*	*	*
=16	=16	=16	=16	=16	=16	=16	=16	=16	=16	=16	=16	=16	=16	=16	=16	=16	=16	=16	=16	=16	=16	=16
1ryy	2A 2E/	2AA\	4.a 4.c#X/	.	2A\	-pen-	.	.	2A/	-pen-	.	.	4.c#X/	-pen-	.	2a/	-pen-	.	.	1ryy	.	.
.	.	.	8e/	.	.	.	.	.	.	.	.	.	8e/	.	.	.	.	.	.	.	.	.
.	2r	2ryy	4a/	.	4AA/	-dit.	.	.	4A/	-dit.	.	.	4a/	-dit.	.	4a/	-dit.	.	.	.	.	.
.	.	.	4r	.	4r	.	.	.	4r	.	.	.	4r	.	.	4r	.	.	.	.	.	.
=17	=17	=17	=17	=17	=17	=17	=17	=17	=17	=17	=17	=17	=17	=17	=17	=17	=17	=17	=17	=17	=17	=17
!	!	!	!	!LO:DY:rj	!	!	!	!LO:DY:a:rj	!	!	!	!LO:DY:a:rj	!	!	!LO:DY:a:rj	!LO:TX:a:t=E:color=red	!	!	!LO:DY:a:rj	!	!	!
1ryy	2A/	1r	2a/	f	4.A\	Ec-	.	f	4.A/	Ec-	.	f	4.a/	Ec-	f	4.a/	Ec-	.	f	1ryy	.	.
.	.	.	.	.	8A\	-ce	.	.	8A/	-ce	.	.	8a/	-ce	.	8a/	-ce	.	.	.	.	.
.	4c#X 4A/	.	4ee 4a 4g/	.	4A\	li-	.	.	4c#X\	li-	.	.	4g/	li-	.	4ee\	li-	.	.	.	.	.
.	4d 4A/	.	4dd 4a 4f/	.	4A\	-gnum	.	.	4d\	-gnum	.	.	4f/	-gnum	.	4dd\	-gnum	.	.	.	.	.
=18	=18	=18	=18	=18	=18	=18	=18	=18	=18	=18	=18	=18	=18	=18	=18	=18	=18	=18	=18	=18	=18	=18
*	*	*	*	*	*	*	*	*	*	*	*	*	*	*	*	*2\right	*	*	*	*	*	*
1ryy	2d [<2A/	1r	2dd [2a 2f/	.	2A\	cru-	.	.	2f\	cru-	.	.	2d/	cru-	.	2dd\	cru-	.	.	1ryy	.	.
.	4e 4A/]	.	4cc#X 4a/]	.	4A\	-cis	.	.	4e\	-cis	.	.	4a/	-cis	.	4cc#X\	-cis	.	.	.	.	.
.	4r	.	4r	.	4r	.	.	.	4r	.	.	.	4r	.	.	4r	.	.	.	.	.	.
*	*	*	*	*	*	*Xij	*	*	*	*Xij	*	*	*	*Xij	*	*	*	*	*	*	*	*
!!LO:LB:g=original
=19	=19	=19	=19	=19	=19	=19	=19	=19	=19	=19	=19	=19	=19	=19	=19	=19	=19	=19	=19	=19	=19	=19
*	*	*	*^	*	*	*	*	*	*	*	*	*	*	*	*	*	*	*	*	*	*	*
!	!	!	!	!	!LO:DY:rj	!	!	!	!LO:DY:a:rj	!	!	!	!LO:DY:a:rj	!	!	!LO:DY:a:rj	!	!	!	!LO:DY:a:rj	!	!	!
1ryy	2A/	2AA\	2a/	2a\	f	4.A\	ec-	.	ff	4.A/	ec-	.	ff	4.a/	ec-	ff	4.a/	ec-	.	ff	1ryy	.	.
*	*	*	*	*	*	*	*ij	*	*	*	*ij	*	*	*	*ij	*	*	*	*	*	*	*	*
.	.	.	.	.	.	8A\	-ce	.	.	8A/	-ce	.	.	8a/	-ce	.	8a/	-ce	.	.	.	.	.
.	4c#X 4A 4E/	4C#X\	4gg 4ee 4a 4g/	2ryy	.	4c#X\	li-	.	.	4e\	li-	.	.	4a/	li-	.	4gg\	li-	.	.	.	.	.
.	4d 4A/	4D\	4ff 4dd 4a 4f/	.	.	4d\	-gnum	.	.	4d\	-gnum	.	.	4a/	-gnum	.	4ff\	-gnum	.	.	.	.	.
*	*	*	*v	*v	*	*	*	*	*	*	*	*	*	*	*	*	*	*	*	*	*	*	*
=20	=20	=20	=20	=20	=20	=20	=20	=20	=20	=20	=20	=20	=20	=20	=20	=20	=20	=20	=20	=20	=20	=20
1ryy	2d/	[2A\	2ee 2a [2e/	.	2A\	cru-	.	.	2d\	cru-	.	.	2a/	cru-	.	2ee\	cru-	.	.	1ryy	.	.
*	*	*	*	*	*	*Xij	*	*	*	*Xij	*	*	*	*Xij	*	*	*	*	*	*	*	*
.	8c#X/	8A\]	8a 8e/]	.	8A\	-cis.	.	.	8c#X\	-cis.	.	.	8a/	-cis.	.	8a/	-cis.	.	.	.	.	.
.	8r	8ryy	8r	.	8r	.	.	.	8r	.	.	.	8r	.	.	8r	.	.	.	.	.	.
!	!	!	!	!LO:DY:rj	!	!	!	!	!	!	!	!	!	!	!LO:DY:a:rj	!	!	!	!LO:DY:a:rj	!	!	!
.	4r	4ryy	4a/	p	4r	.	.	.	4r	.	.	.	4a/	Ve-	p	4a/	Ve-	.	p	.	.	.
=21	=21	=21	=21	=21	=21	=21	=21	=21	=21	=21	=21	=21	=21	=21	=21	=21	=21	=21	=21	=21	=21	=21
*	*	*	*	*	*	*	*	*	*	*	*	*	*	*ij	*	*	*	*	*	*	*	*
1ryy	2r	1rGG	4.ff 4.a/	.	2r	.	.	.	2r	.	.	.	4.a/	-ni-	.	4.ff^\	-ni-	.	.	1ryy	.	.
.	.	.	8ee 8g/	.	.	.	.	.	.	.	.	.	8g/	-te,	.	8ee\	-te,	.	.	.	.	.
.	4r	.	4dd 4f/	.	4r	.	.	.	4r	.	.	.	4f/	a-	.	4dd\	a-	.	.	.	.	.
!	!	!	!	!	!	!	!	!LO:DY:a:rj	!	!	!	!LO:DY:a:rj	!	!	!	!	!	!	!	!	!	!
.	4A/	.	4cc#X 4e/	.	4A\	Ve-	.	p	4A/	Ve-	.	p	4e/	-do-	.	4cc#X\	-do-	.	.	.	.	.
=22	=22	=22	=22	=22	=22	=22	=22	=22	=22	=22	=22	=22	=22	=22	=22	=22	=22	=22	=22	=22	=22	=22
1ryy	4.f 4.A/	1rGG	2dd 2d/	.	(4.A^\	-ni-	.	.	(4.f^\	-ni-	.	.	2d/	-re-	.	2dd\	-re-	.	.	1ryy	.	.
.	8e 8G/	.	.	.	8G\)	.	.	.	8e\)	.	.	.	.	.	.	.	.	.	.	.	.	.
.	4d 4F/	.	8a/	.	4F\	-te,	.	.	4d\	-te,	.	.	8a/	-mus,	.	8a/	-mus,	.	.	.	.	.
.	.	.	8r	.	.	.	.	.	.	.	.	.	8r	.	.	8r	.	.	.	.	.	.
.	4c#X 4E/	.	4a/	.	4E\	ve-	.	.	4c#X\	ve-	.	.	4a/	ve-	.	4a/	ve-	.	.	.	.	.
=23	=23	=23	=23	=23	=23	=23	=23	=23	=23	=23	=23	=23	=23	=23	=23	=23	=23	=23	=23	=23	=23	=23
!	!	!	!LO:N:n=3:vis=4	!	!	!	!	!	!	!	!	!	!	!	!	!	!	!	!	!	!	!
1ryy	4.D/	1r	4.a 4.f 4.d/	.	4.D^\	-ni-	.	.	4.d^\	-ni-	.	.	4.f^/	-ni-	.	4.a^/	-ni-	.	.	1ryy	.	.
*	*	*	*	*	*	*ij	*	*	*	*	*	*	*	*	*	*	*	*	*	*	*	*
.	8GG/	.	8g 8e 8B-/	.	8GG/	-te,	.	.	8B-\	-te,	.	.	8e/	-te,	.	8g/	-te,	.	.	.	.	.
.	4AA/	.	4f 4d 4A/	.	4AA/	a-	.	.	4A/	a-	.	.	4d/	a-	.	4f/	a-	.	.	.	.	.
.	4A/	.	4e 4c#X/	.	4A\	-do-	.	.	4A/	-do-	.	.	4c#X/	-do-	.	4e/	-do-	.	.	.	.	.
=24	=24	=24	=24	=24	=24	=24	=24	=24	=24	=24	=24	=24	=24	=24	=24	=24	=24	=24	=24	=24	=24	=24
*	*	*	*^	*	*	*	*	*	*	*	*	*	*	*	*	*	*	*	*	*	*	*
1ryy	4.B-/	1rGG	4.g/	2.d\	.	(4.B-^\	-re-	.	.	2d\	-re-	.	.	2d/	-re-	.	(4.g/	-re-	.	.	1ryy	.	.
*	*	*	*	*	*	*	*Xij	*	*	*	*	*	*	*	*Xij	*	*	*	*	*	*	*	*
.	8A/	.	8a/	.	.	8A\)	.	.	.	.	.	.	.	.	.	.	8a/)	.	.	.	.	.	.
.	4G/	.	4b-/	.	.	4G\	-mus	.	.	4d\	-mus.	.	.	4g/	-mus.	.	4b-/	-mus.	.	.	.	.	.
.	4ryy	.	4r	4ryy	.	4r	.	.	.	4r	.	.	.	4r	.	.	4r	.	.	.	.	.	.
*	*	*	*v	*v	*	*	*	*	*	*	*	*	*	*	*	*	*	*	*	*	*	*	*
!!LO:PB:g=original
=25	=25	=25	=25	=25	=25	=25	=25	=25	=25	=25	=25	=25	=25	=25	=25	=25	=25	=25	=25	=25	=25	=25
!	!	!	!	!	!	!	!	!	!	!	!	!	!	!	!LO:DY:a:rj	!	!	!	!LO:DY:a:rj	!LO:TX:a:t=I:color=red	!	!
1ryy	4.D/	4DD\	4.d/	.	4.D\	ec-	.	.	4.d\	ec-	.	.	4.d/	ec-	f	4.d/	ec-	.	f	1ryy	.	.
.	.	4r	.	.	.	.	.	.	.	.	.	.	.	.	.	.	.	.	.	.	.	.
*	*	*	*	*	*	*ij	*	*	*	*ij	*	*	*	*ij	*	*	*	*	*	*	*	*
.	8F/	.	8f/	.	8F\	-ce	.	.	8F/	-ce	.	.	8f/	-ce	.	8f/	-ce	.	.	.	.	.
.	4A 4AA/	2r	4a/	.	4A\	li-	.	.	4A/	li-	.	.	4a/	li-	.	4a/	li-	.	.	.	.	.
.	4d 4D/	.	4dd/	.	4d\	-gnum	.	.	4d\	-gnum	.	.	4dd\	-gnum	.	4dd\	-gnum	.	.	.	.	.
=26	=26	=26	=26	=26	=26	=26	=26	=26	=26	=26	=26	=26	=26	=26	=26	=26	=26	=26	=26	=26	=26	=26
1ryy	4F/	2r	4ff 4f/	.	2F\	cru-	.	.	2f\	cru-	.	.	2f/	cru-	.	2ff\	cru-	.	.	1ryy	.	.
.	4r	.	4r	.	.	.	.	.	.	.	.	.	.	.	.	.	.	.	.	.	.	.
!	!	!	!	!LO:DY:rj	!	!	!	!	!	!	!	!	!	!	!	!	!	!	!	!	!	!
.	2E-X/	2EE-X\	2a 2f 2c/	pp	8F\	-cis,	.	.	8F/	-cis,	.	.	8f/	-cis,	.	8f/	-cis,	.	.	.	.	.
.	.	.	.	.	8r	.	.	.	8r	.	.	.	8r	.	.	8r	.	.	.	.	.	.
!	!	!	!	!	!	!	!	!LO:DY:a:rj	!	!	!	!LO:DY:a:rj	!	!	!LO:DY:a:rj	!	!	!	!LO:DY:a:rj	!	!	!
.	.	.	.	.	4F\	ve-	.	p	4A/	ve-	.	p	4f\	ve-	p	4a/	ve-	.	p	.	.	.
*	*v	*v	*	*	*	*	*	*	*	*	*	*	*	*	*	*	*	*	*	*	*	*
=27	=27	=27	=27	=27	=27	=27	=27	=27	=27	=27	=27	=27	=27	=27	=27	=27	=27	=27	=27	=27	=27
*	*	*^	*	*	*	*	*	*	*	*	*	*	*	*	*	*	*	*	*	*	*
1ryy	1En 1EEn	2a/	2e 2c#X\	.	4.E\	-ni-	.	.	4.c#X\	-ni-	.	.	4.e/	-ni-	.	4.a/	-ni-	.	.	1ryy	.	.
.	.	.	.	.	8E\	-te	.	.	8c#\	-te	.	.	8e/	-te	.	8a/	-te	.	.	.	.	.
.	.	8g#X/L	4Bn\	.	4E\	a-	.	.	4Bn\	a-	.	.	4e/	a-	.	8g#X/L	a-	.	.	.	.	.
.	.	8bn/J	.	.	.	.	.	.	.	.	.	.	.	.	.	8bn/J	.	.	.	.	.	.
.	.	4dd/	4g# 4e\	.	4E\	-do-	.	.	4e\	-do-	.	.	4g#X/	-do-	.	4dd\	-do-	.	.	.	.	.
*	*	*v	*v	*	*	*	*	*	*	*	*	*	*	*	*	*	*	*	*	*	*	*
=28	=28	=28	=28	=28	=28	=28	=28	=28	=28	=28	=28	=28	=28	=28	=28	=28	=28	=28	=28	=28	=28
1ryy	[2A [2AA/	2cc#X 2a 2e/	.	2A\	-re-	.	.	2e\	-re-	.	.	2a/	-re-	.	2cc#X\	-re-	.	.	1ryy	.	.
*	*	*	*	*	*Xij	*	*	*	*Xij	*	*	*	*Xij	*	*	*	*	*	*	*	*
.	8A] 8AA/]	8a/	.	4AA/	-mus.	.	.	8A/	-mus.	.	.	8a/	-mus.	.	8a/	-mus.	.	.	.	.	.
.	8r	8r	p	.	.	.	.	8r	.	.	.	8r	.	.	8r	.	.	.	.	.	.
!	!	!	!	!	!	!	!	!	!	!	!LO:DY:a:rj	!	!	!LO:DY:a:rj	!	!	!	!	!	!	!
.	4r	4a 4A/	.	4r	.	.	.	4A/	ve-	.	p	4a/	ve-	p	4r	.	.	.	.	.	.
=29	=29	=29	=29	=29	=29	=29	=29	=29	=29	=29	=29	=29	=29	=29	=29	=29	=29	=29	=29	=29	=29
*	*^	*^	*	*	*	*	*	*	*	*	*	*	*	*	*	*	*	*	*	*	*
1ryy	2r	1rFF	4.a 4.f\	2ryy	.	2r	.	.	.	4.f^\	-ni-	.	.	4.a^/	-ni-	.	2r	.	.	.	1ryy	.	.
.	.	.	8g 8e\	.	.	.	.	.	.	8e\	-te,	.	.	8g/	-te	.	.	.	.	.	.	.	.
.	4r	.	4f 4d/	4ryy	.	4r	.	.	.	4d\	a-	.	.	4f/	a-	.	4r	.	.	.	.	.	.
!	!	!	!	!	!	!	!	!	!LO:DY:a:rj	!	!	!	!	!	!	!	!	!	!	!LO:DY:a:rj	!	!	!
.	4AA/	.	8e/L	4c#X\	.	4AA/	.	.	p	4c#X\	-do-	.	.	8e/L	-do-	.	4a/	ve-	.	p	.	.	.
.	.	.	8a/J	.	.	.	.	.	.	.	.	.	.	8a/J	.	.	.	.	.	.	.	.	.
=30	=30	=30	=30	=30	=30	=30	=30	=30	=30	=30	=30	=30	=30	=30	=30	=30	=30	=30	=30	=30	=30	=30	=30
*	*	*^	*	*	*	*	*	*	*	*	*	*	*	*	*	*	*	*	*	*	*	*	*
1ryy	2.d/	4.D\	1rFF	4.ff/	1a	.	(4.D\	.	.	.	2d\	-re-	.	.	2a/	-re-	.	(4.ff^\	-ni-	.	.	1ryy	.	.
.	.	8E\	.	8ee/	.	.	8E\)	.	.	.	.	.	.	.	.	.	.	8ee\)	.	.	.	.	.	.
.	.	4F\	.	4dd/	.	.	8F\	.	.	.	8d\	-mus,	.	.	8a/	-mus,	.	4dd\	-te,	.	.	.	.	.
.	.	.	.	.	.	.	8r	.	.	.	8r	.	.	.	8r	.	.	.	.	.	.	.	.	.
.	4e/	4G\	.	4cc#X/	.	.	4A\	.	.	.	4e\	ve	.	.	4a/	ve	.	4cc#X\	ve-	.	.	.	.	.
*	*	*v	*v	*	*	*	*	*	*	*	*	*	*	*	*	*	*	*	*	*	*	*	*	*
!!LO:LB:g=original
=31	=31	=31	=31	=31	=31	=31	=31	=31	=31	=31	=31	=31	=31	=31	=31	=31	=31	=31	=31	=31	=31	=31	=31
1ryy	4.A/	1rGG	4.dd 4.f/	2ryy	.	4.A\	.	.	.	4.A/	.	.	.	4.f/	.	.	4.dd\	-ni-	.	.	1ryy	.	.
.	8G/	.	8a 8e/	.	.	8G\	.	.	.	8A/	.	.	.	8e/	.	.	8a/	-te,	.	.	.	.	.
.	8F/L	.	2a 2d/	4r	.	8F\L	.	.	.	4A/	.	.	.	4d/	.	.	4a/	a-	.	.	.	.	.
.	8E/	.	.	.	.	8E\J	.	.	.	.	.	.	.	.	.	.	.	.	.	.	.	.	.
.	8D/	.	.	4A\	.	8D/L	.	.	.	4F/	.	.	.	4d/	.	.	4a/	-do-	.	.	.	.	.
.	8C/J	.	.	.	.	8C/J	.	.	.	.	.	.	.	.	.	.	.	.	.	.	.	.	.
=32	=32	=32	=32	=32	=32	=32	=32	=32	=32	=32	=32	=32	=32	=32	=32	=32	=32	=32	=32	=32	=32	=32	=32
*	*	*^	*	*	*	*	*	*	*	*	*	*	*	*	*	*	*	*	*	*	*	*	*
1ryy	[2G/	4.BB-/	1rFF	4.a/	[2d\	.	4.BB-/	.	.	.	2G/	.	.	.	2d/	.	.	(4.g/	-re-	.	.	1ryy	.	.
.	.	8AA/	.	8a/	.	.	8AA/	.	.	.	.	.	.	.	.	.	.	8a/)	.	.	.	.	.	.
.	4G/]	4GG/	.	4b-/	4d\]	.	4GG/	.	.	.	4G/	.	.	.	4d/	.	.	4b-/	-mus.	.	.	.	.	.
.	4r	4ryy	.	4r	4ryy	.	4r	.	.	.	4r	.	.	.	4r	.	.	4r	.	.	.	.	.	.
*	*	*v	*v	*	*	*	*	*	*	*	*	*	*	*	*	*	*	*	*	*	*	*	*	*
*	*	*	*v	*v	*	*	*	*	*	*	*	*	*	*	*	*	*	*	*	*	*	*	*
=33	=33	=33	=33	=33	=33	=33	=33	=33	=33	=33	=33	=33	=33	=33	=33	=33	=33	=33	=33	=33	=33	=33
!	!	!	!	!LO:DY:rj	!	!	!	!LO:DY:a:rj	!	!	!	!LO:DY:a:rj	!	!	!LO:DY:a:rj	!	!	!	!LO:DY:a:rj	!	!	!
1ryy	4.D/	4DD\	4.d/	f	4.D\	.	.	f	4.d\	.	.	f	4.d/	.	f	4.d/	.	.	f	1ryy	.	.
.	.	4r	.	.	.	.	.	.	.	.	.	.	.	.	.	.	.	.	.	.	.	.
.	8F/	.	8f/	.	8F\	.	.	.	8F/	.	.	.	8f/	.	.	8f/	.	.	.	.	.	.
.	8A/L	2rGG	8a/L	.	8A\L	.	.	.	8A/L	.	.	.	8a/L	.	.	8a/L	.	.	.	.	.	.
.	8F/	.	8f/	.	8F\J	.	.	.	8F/J	.	.	.	8f/J	.	.	8f/J	.	.	.	.	.	.
.	8A/	.	8a/	.	8A\L	.	.	.	8A\L	.	.	.	8a\L	.	.	8a\L	.	.	.	.	.	.
.	8d/J	.	8dd/J	.	8d\J	.	.	.	8d\J	.	.	.	8dd\J	.	.	8dd\J	.	.	.	.	.	.
=34	=34	=34	=34	=34	=34	=34	=34	=34	=34	=34	=34	=34	=34	=34	=34	=34	=34	=34	=34	=34	=34	=34
*	*	*	*	*	*	*	*	*	*	*	*	*	*2\right	*	*	*	*	*	*	*	*	*
1ryy	(2d 2A/	2F 2D\	(2ff 2dd 2a 2f\	.	2d^\	.	.	.	2f\	.	.	.	2dd\	.	>	2ff\	.	.	>	1ryy	.	.
!	!	!	!	!LO:DY:rj	!	!	!	!	!	!	!	!	!	!	!	!	!	!	!	!	!	!
.	2F/)	2AA-X/	4d 4B-/)	p	8D\	.	.	.	8d\	.	.	.	8d/	.	]	8d/	.	.	]	.	.	.
.	.	.	.	.	8r	.	.	.	8r	.	.	.	8r	.	.	8r	.	.	.	.	.	.
!	!	!	!	!LO:DY:rj	!	!	!	!	!	!	!	!	!	!	!LO:DY:a:rj	!	!	!	!LO:DY:a:rj	!	!	!
.	.	.	4dd 4d/	p	4AA-X/	.	.	.	4F/	.	.	.	4d/	.	p	4dd\	.	.	p	.	.	.
=35	=35	=35	=35	=35	=35	=35	=35	=35	=35	=35	=35	=35	=35	=35	=35	=35	=35	=35	=35	=35	=35	=35
*	*	*	*^	*	*	*	*	*	*	*	*	*	*	*	*	*	*	*	*	*	*	*
1ryy	(2F#X/	1AAn	4.dd/	2d\	.	4.AAn/	.	.	.	4.F#X/	.	.	.	4.d/	.	.	4.dd\	.	.	.	1ryy	.	.
.	.	.	8a/	.	.	8AA/	.	.	.	8F#/	.	.	.	8d/	.	.	8a/	.	.	.	.	.	.
!	!LO:N:vis=2	!	!	!	!	!	!	!	!	!	!	!	!	!	!	!	!	!	!	!	!	!	!
.	4E/)	.	2a/	8c#X\L	.	4AA/	.	.	.	4E/	.	.	.	8c#X/L	.	.	4a/	.	.	.	.	.	.
.	.	.	.	8e\J	.	.	.	.	.	.	.	.	.	8e/J	.	.	.	.	.	.	.	.	.
.	4r	.	.	4g 4c#\	.	4AA/	.	.	.	4c#X\	.	.	.	4g/	.	.	4a/	.	.	.	.	.	.
*	*kcancel	*	*kcancel	*	*	*kcancel	*	*	*	*kcancel	*	*	*	*kcancel	*	*	*kcancel	*	*	*	*kcancel	*	*
*	*v	*v	*	*	*	*	*	*	*	*	*	*	*	*	*	*	*	*	*	*	*	*	*
*	*	*v	*v	*	*	*	*	*	*	*	*	*	*	*	*	*	*	*	*	*	*	*
!!LO:PB:g=original
=36||	=36||	=36||	=36||	=36||	=36||	=36||	=36||	=36||	=36||	=36||	=36||	=36||	=36||	=36||	=36||	=36||	=36||	=36||	=36||	=36||	=36||
*	*k[f#c#]	*k[f#c#]	*	*k[f#c#]	*	*	*	*k[f#c#]	*	*	*	*k[f#c#]	*	*	*k[f#c#]	*	*	*	*k[f#c#]	*	*
!	!	!LO:TX:t=P:problem=kolejność znaków f# cc#	!LO:DY:rj	!	!	!	!	!LO:TX:t=P:problem=kolejność znaków F# c#	!	!	!	!LO:TX:t=P:problem=kolejność znaków f# cc#	!	!	!LO:TX:t=P:problem=kolejność znaków f# cc#	!	!	!	!	!	!
1ryy	1D 1DD	2a 2f# 2d/	pp	2D/	ni-	.	.	2d\	ni-	.	.	2f#/	ni-	.	2a/	ni-	.	.	1ryy	.	.
*	*	*	*	*	*ij	*	*	*	*ij	*	*	*	*ij	*	*	*	*	*	*	*	*
.	.	4f# 4d/	.	8D/	-te,	.	.	8A/	-te,	.	.	8d/	-te,	.	8f#/	-te,	.	.	.	.	.
.	.	.	.	8r	.	.	.	8r	.	.	.	8r	.	.	8r	.	.	.	.	.	.
.	.	4dd 4f#/	.	4D/	ve-	.	.	4d\	ve-	.	.	4f#/	ve-	.	4dd\	ve-	.	.	.	.	.
=37	=37	=37	=37	=37	=37	=37	=37	=37	=37	=37	=37	=37	=37	=37	=37	=37	=37	=37	=37	=37	=37
*	*^	*	*	*	*	*	*	*	*	*	*	*	*	*	*	*	*	*	*	*	*
1ryy	1A 1D	2.DD\	2dd 2f# 2d/	.	4D/	-ni-	.	.	(4f#\	-ni-	.	.	(4a/	-ni-	.	(4dd\	-ni-	.	.	1ryy	.	.
.	.	.	.	.	8D/	-te,	.	.	8d\)	-te,	.	.	8f#/)	-te,	.	8a\)	-te,	.	.	.	.	.
.	.	.	.	.	8r	.	.	.	8r	.	.	.	8r	.	.	8r	.	.	.	.	.	.
.	.	.	4a 4f#/	.	4D/	a-	.	.	4A/	a-	.	.	4f#/	a-	.	4a\	a-	.	.	.	.	.
.	.	4D\	4ff# 4f#/	.	4D/	-do-	.	.	4A/	-do-	.	.	4f#/	-do-	.	4ff#\	-do-	.	.	.	.	.
=38	=38	=38	=38	=38	=38	=38	=38	=38	=38	=38	=38	=38	=38	=38	=38	=38	=38	=38	=38	=38	=38	=38
*	*	*	*^	*	*	*	*	*	*	*	*	*	*	*	*	*	*	*	*	*	*	*
1ryy	2A#X/	2C#\	[1ee	2f#\	.	2C#/	-re-	.	.	(2A#X/	-re-	.	.	(>2f#/	-re-	.	[1ee	-re-	.	.	1ryy	.	.
.	2B/	2BB\	.	[2g\	.	2BB/	.	.	.	(2B\)	.	.	.	[>2g/)	.	.	.	.	.	.	.	.	.
*	*	*	*	*	*	*	*Xij	*	*	*	*Xij	*	*	*	*Xij	*	*	*	*	*	*	*	*
=39	=39	=39	=39	=39	=39	=39	=39	=39	=39	=39	=39	=39	=39	=39	=39	=39	=39	=39	=39	=39	=39	=39	=39
1ryy	2d/	2BB-X\	1ee]	1g]	.	2BB-X/	.	.	.	(2d\)	.	.	.	1g]	.	.	1ee]	.	.	.	1ryy	.	.
.	2c#/	2AA\	.	.	.	2AA/	.	.	.	2c#\)	.	.	.	.	.	.	.	.	.	.	.	.	.
=40	=40	=40	=40	=40	=40	=40	=40	=40	=40	=40	=40	=40	=40	=40	=40	=40	=40	=40	=40	=40	=40	=40	=40
1ryy	2d 2A/	[1DD	(2dd/	2f#\	.	2D\	-mus.	.	.	2d\	-mus.	.	.	2f#/	-mus.	.	2dd\	-mus.	.	.	1ryy	.	.
.	4F#/	.	4a/	2d\	.	2r	.	.	.	2r	.	.	.	2r	.	.	2r	.	.	.	.	.	.
.	4A/	.	4f#/	.	.	.	.	.	.	.	.	.	.	.	.	.	.	.	.	.	.	.	.
*	*	*	*v	*v	*	*	*	*	*	*	*	*	*	*	*	*	*	*	*	*	*	*	*
=41	=41	=41	=41	=41	=41	=41	=41	=41	=41	=41	=41	=41	=41	=41	=41	=41	=41	=41	=41	=41	=41	=41
1ryy	4D/	4DD\]	4d/	.	1r	.	.	.	1r	.	.	.	1r	.	.	1r	.	.	.	1ryy	.	.
.	8AA/L	4r	8A</L	.	.	.	.	.	.	.	.	.	.	.	.	.	.	.	.	.	.	.
.	8FF#/J	.	8F#</J	.	.	.	.	.	.	.	.	.	.	.	.	.	.	.	.	.	.	.
.	4DD/	4r	4D</	.	.	.	.	.	.	.	.	.	.	.	.	.	.	.	.	.	.	.
.	4AA\	4ryy	4A< 4F#</)	.	.	.	.	.	.	.	.	.	.	.	.	.	.	.	.	.	.	.
*	*v	*v	*	*	*	*	*	*	*	*	*	*	*	*	*	*	*	*	*	*	*	*
=42	=42	=42	=42	=42	=42	=42	=42	=42	=42	=42	=42	=42	=42	=42	=42	=42	=42	=42	=42	=42	=42
1ryy	1A 1F# 1AA 1DD	1f# 1d;	.	1r;	.	.	.	1r;	.	.	.	1r;	.	.	1r;	.	.	.	1ryy	.	.
!!LO:LB:g=original
=43||	=43||	=43||	=43||	=43||	=43||	=43||	=43||	=43||	=43||	=43||	=43||	=43||	=43||	=43||	=43||	=43||	=43||	=43||	=43||	=43||	=43||
*	*k[f#c#g#]	*k[f#c#g#]	*	*k[f#c#g#]	*	*	*	*k[f#c#g#]	*	*	*	*k[f#c#g#]	*	*	*k[f#c#g#]	*	*	*	*k[f#c#g#]	*	*
*	*	*^	*	*	*	*	*	*	*	*	*	*	*	*	*	*	*	*	*	*	*
!	!	!LO:TX:t=P:problem=brak oznaczenia tonacji	!LO:DY:rj	!	!	!	!	!	!	!	!	!	!	!	!	!	!	!	!	!LO:TX:t=P:problem=kolejność znaków F# c# G#	!	!
1ryy	1ryy	2a/	2e 2c#\	pp	1ryy	.	.	.	1ryy	.	.	.	1ryy	.	.	1ryy	.	.	.	8.A/	Po-	.
.	.	.	.	.	.	.	.	.	.	.	.	.	.	.	.	.	.	.	.	16A/	-pu-	.
.	.	.	.	.	.	.	.	.	.	.	.	.	.	.	.	.	.	.	.	4A/	-le	.
.	.	2b/	2a 2f# 2d\	.	.	.	.	.	.	.	.	.	.	.	.	.	.	.	.	4B/	me-	.
.	.	.	.	.	.	.	.	.	.	.	.	.	.	.	.	.	.	.	.	8B/	-us,	.
.	.	.	.	.	.	.	.	.	.	.	.	.	.	.	.	.	.	.	.	8B/	quid	.
=44	=44	=44	=44	=44	=44	=44	=44	=44	=44	=44	=44	=44	=44	=44	=44	=44	=44	=44	=44	=44	=44	=44
!	!	!	!	!	!	!	!	!	!	!	!	!	!	!	!	!	!	!	!	!LO:TX:a:t=A=:color=red	!	!
1ryy	1ryy	1b 1g#	2e\	.	1ryy	.	.	.	1ryy	.	.	.	1ryy	.	.	1ryy	.	.	.	4.d\	fe-	.
.	.	.	.	.	.	.	.	.	.	.	.	.	.	.	.	.	.	.	.	8d\	-ci	.
.	.	.	2e#X\	.	.	.	.	.	.	.	.	.	.	.	.	.	.	.	.	4d\	ti-	.
.	.	.	.	.	.	.	.	.	.	.	.	.	.	.	.	.	.	.	.	8c#\	-bi	.
.	.	.	.	.	.	.	.	.	.	.	.	.	.	.	.	.	.	.	.	8r	.	.
=45	=45	=45	=45	=45	=45	=45	=45	=45	=45	=45	=45	=45	=45	=45	=45	=45	=45	=45	=45	=45	=45	=45
1ryy	1ryy	[4a/	1f#	.	1ryy	.	.	.	1ryy	.	.	.	1ryy	.	.	1ryy	.	.	.	8.c#\	aut	.
.	.	.	.	.	.	.	.	.	.	.	.	.	.	.	.	.	.	.	.	16c#\	in	.
.	.	4cc# 4a/]	.	.	.	.	.	.	.	.	.	.	.	.	.	.	.	.	.	4c#\	quo	.
.	.	2dd 2b 2a/	.	.	.	.	.	.	.	.	.	.	.	.	.	.	.	.	.	4.d\	con-	.
.	.	.	.	.	.	.	.	.	.	.	.	.	.	.	.	.	.	.	.	8d\	-tri-	.
=46	=46	=46	=46	=46	=46	=46	=46	=46	=46	=46	=46	=46	=46	=46	=46	=46	=46	=46	=46	=46	=46	=46
*	*	*	*^	*	*	*	*	*	*	*	*	*	*	*	*	*	*	*	*	*	*	*
1ryy	1ryy	2dd#/	(>4ccn\	2a 2fn\	.	1ryy	.	.	.	1ryy	.	.	.	1ryy	.	.	1ryy	.	.	.	4.d#X\	-sta-	.
.	.	.	4b\)	.	.	.	.	.	.	.	.	.	.	.	.	.	.	.	.	.	.	.	.
.	.	.	.	.	.	.	.	.	.	.	.	.	.	.	.	.	.	.	.	.	8d#\	-vi	.
.	.	2ee 2b 2g#/	4e\	2ryy	.	.	.	.	.	.	.	.	.	.	.	.	.	.	.	.	4e\	me?	.
.	.	.	4d\	.	.	.	.	.	.	.	.	.	.	.	.	.	.	.	.	.	8r	.	.
.	.	.	.	.	.	.	.	.	.	.	.	.	.	.	.	.	.	.	.	.	8e\	res-	.
*	*	*	*v	*v	*	*	*	*	*	*	*	*	*	*	*	*	*	*	*	*	*	*	*
!!LO:LB:g=original
=47	=47	=47	=47	=47	=47	=47	=47	=47	=47	=47	=47	=47	=47	=47	=47	=47	=47	=47	=47	=47	=47	=47
1ryy	[4c#\	(4a/	[2e\	.	1ryy	.	.	.	1ryy	.	.	.	1ryy	.	.	1ryy	.	.	.	4.e\	-pon-	.
.	4c#_ 4B\	[4gn/)	.	.	.	.	.	.	.	.	.	.	.	.	.	.	.	.	.	.	.	.
.	.	.	.	.	.	.	.	.	.	.	.	.	.	.	.	.	.	.	.	8Gn/	-de	.
.	8c#] 8A#X\	8g/L]	8e\]	.	.	.	.	.	.	.	.	.	.	.	.	.	.	.	.	8G/	mi-	.
.	8r;	16f#/Jk	8ryy	.	.	.	.	.	.	.	.	.	.	.	.	.	.	.	.	16F#/	-hi.	.
.	.	16r;	.	.	.	.	.	.	.	.	.	.	.	.	.	.	.	.	.	16r;	.	.
.	4r	4r	4ryy	.	.	.	.	.	.	.	.	.	.	.	.	.	.	.	.	8r	.	.
.	.	.	.	.	.	.	.	.	.	.	.	.	.	.	.	.	.	.	.	8c#\	Res-	.
*	*	*v	*v	*	*	*	*	*	*	*	*	*	*	*	*	*	*	*	*	*	*	*
=48	=48	=48	=48	=48	=48	=48	=48	=48	=48	=48	=48	=48	=48	=48	=48	=48	=48	=48	=48	=48	=48
1ryy	[4B\	2f# 2d/	.	1ryy	.	.	.	1ryy	.	.	.	1ryy	.	.	1ryy	.	.	.	4.d\	-pon-	.
.	4B] 4A\	.	.	.	.	.	.	.	.	.	.	.	.	.	.	.	.	.	.	.	.
.	.	.	.	.	.	.	.	.	.	.	.	.	.	.	.	.	.	.	8F#/	-de	.
.	2B 2G#\	2e#X 2c#/	.	.	.	.	.	.	.	.	.	.	.	.	.	.	.	.	8E#X/	mi-	.
.	.	.	.	.	.	.	.	.	.	.	.	.	.	.	.	.	.	.	8G#/	-hi	.
.	.	.	.	.	.	.	.	.	.	.	.	.	.	.	.	.	.	.	4r	.	.
=49	=49	=49	=49	=49	=49	=49	=49	=49	=49	=49	=49	=49	=49	=49	=49	=49	=49	=49	=49	=49	=49
*	*	*^	*	*	*	*	*	*	*	*	*	*	*	*	*	*	*	*	*	*	*
1ryy	2A\	1f#	2c#\	.	1ryy	.	.	.	1ryy	.	.	.	1ryy	.	.	1ryy	.	.	.	4c#\	Po-	.
.	.	.	.	.	.	.	.	.	.	.	.	.	.	.	.	.	.	.	.	8d\	-pu-	.
.	.	.	.	.	.	.	.	.	.	.	.	.	.	.	.	.	.	.	.	8c#\	-le	.
*	*	*	*	*	*	*	*	*	*	*	*	*	*	*	*	*	*	*	*	*2\right	*	*
.	2D/	.	2B\	.	.	.	.	.	.	.	.	.	.	.	.	.	.	.	.	2B\	me-	.
=50	=50	=50	=50	=50	=50	=50	=50	=50	=50	=50	=50	=50	=50	=50	=50	=50	=50	=50	=50	=50	=50	=50
*	*^	*	*	*	*	*	*	*	*	*	*	*	*	*	*	*	*	*	*	*	*	*
1ryy	8C#/L	1CC#	8e#X/	4c#\	.	1ryy	.	.	.	1ryy	.	.	.	1ryy	.	.	1ryy	.	.	.	4c#\	-us	.
.	8E#X/	.	(4g#/	.	.	.	.	.	.	.	.	.	.	.	.	.	.	.	.	.	.	.	.
.	8G#/	.	.	4r	.	.	.	.	.	.	.	.	.	.	.	.	.	.	.	.	8r	.	.
.	8B/J	.	8c#/)	.	.	.	.	.	.	.	.	.	.	.	.	.	.	.	.	.	8c#\	quid	.
.	4A/	.	8cc#/L	4r	.	.	.	.	.	.	.	.	.	.	.	.	.	.	.	.	4.c#\	fe-	.
.	.	.	8c#/	.	.	.	.	.	.	.	.	.	.	.	.	.	.	.	.	.	.	.	.
.	4F#/	.	8f#/	[<4f#\	.	.	.	.	.	.	.	.	.	.	.	.	.	.	.	.	.	.	.
.	.	.	8a/J	.	.	.	.	.	.	.	.	.	.	.	.	.	.	.	.	.	8A/	-ci	.
!!LO:PB:g=original
=51	=51	=51	=51	=51	=51	=51	=51	=51	=51	=51	=51	=51	=51	=51	=51	=51	=51	=51	=51	=51	=51	=51	=51
!	!	!	!LO:TX:t=P:problem=brak zakończenia ligatury	!	!	!	!	!	!	!	!	!	!	!	!	!	!	!	!	!	!	!	!
1ryy	8C#/	4CC#\	(4a (4f#/]	4ryy	.	1ryy	.	.	.	1ryy	.	.	.	1ryy	.	.	1ryy	.	.	.	4A/	ti-	.
.	(<4c#/	.	.	.	.	.	.	.	.	.	.	.	.	.	.	.	.	.	.	.	.	.	.
.	.	4r	8g#L 8e#X/))	4e#\	.	.	.	.	.	.	.	.	.	.	.	.	.	.	.	.	8G#/	-bi?	.
.	8C#/)	.	8b/J	.	.	.	.	.	.	.	.	.	.	.	.	.	.	.	.	.	16r	.	.
.	.	.	.	.	.	.	.	.	.	.	.	.	.	.	.	.	.	.	.	.	16B/	quid	.
.	8F#\L	2ryy	4b 4g#/	4ryy	.	.	.	.	.	.	.	.	.	.	.	.	.	.	.	.	4.A/	fe-	.
.	8E\	.	.	.	.	.	.	.	.	.	.	.	.	.	.	.	.	.	.	.	.	.	.
.	8D\	.	4f#/	4f#\	.	.	.	.	.	.	.	.	.	.	.	.	.	.	.	.	.	.	.
.	8C#\J	.	.	.	.	.	.	.	.	.	.	.	.	.	.	.	.	.	.	.	8F#/	-ci	.
*	*	*	*v	*v	*	*	*	*	*	*	*	*	*	*	*	*	*	*	*	*	*	*	*
=52	=52	=52	=52	=52	=52	=52	=52	=52	=52	=52	=52	=52	=52	=52	=52	=52	=52	=52	=52	=52	=52	=52
1ryy	2B/	2F# 2BB\	2f# 2d;/	.	1ryy	.	.	.	1ryy	.	.	.	1ryy	.	.	1ryy	.	.	.	2d;\	ti-	.
.	2r;	2ryy	2r;	.	.	.	.	.	.	.	.	.	.	.	.	.	.	.	.	4B\	-bi?	.
!	!	!	!	!	!	!	!	!	!	!	!	!	!	!	!	!	!	!	!	!LO:TX:a:t==B:color=red	!	!
.	.	.	.	.	.	.	.	.	.	.	.	.	.	.	.	.	.	.	.	4r;	.	.
*	*v	*v	*	*	*	*	*	*	*	*	*	*	*	*	*	*	*	*	*	*	*	*
=53	=53	=53	=53	=53	=53	=53	=53	=53	=53	=53	=53	=53	=53	=53	=53	=53	=53	=53	=53	=53	=53
1ryy	4FF#/	1r	.	1ryy	.	.	.	1ryy	.	.	.	1ryy	.	.	1ryy	.	.	.	1r	.	.
.	8GG#/L	.	.	.	.	.	.	.	.	.	.	.	.	.	.	.	.	.	.	.	.
.	8AA/J	.	.	.	.	.	.	.	.	.	.	.	.	.	.	.	.	.	.	.	.
.	4BB/	.	.	.	.	.	.	.	.	.	.	.	.	.	.	.	.	.	.	.	.
.	4C#/	.	.	.	.	.	.	.	.	.	.	.	.	.	.	.	.	.	.	.	.
=54	=54	=54	=54	=54	=54	=54	=54	=54	=54	=54	=54	=54	=54	=54	=54	=54	=54	=54	=54	=54	=54
1ryy	2.D 2.DD\	1r	.	1ryy	.	.	.	1ryy	.	.	.	1ryy	.	.	1ryy	.	.	.	4F#/	Qui-	.
.	.	.	.	.	.	.	.	.	.	.	.	.	.	.	.	.	.	.	8G#/	-a	.
.	.	.	.	.	.	.	.	.	.	.	.	.	.	.	.	.	.	.	8A/	e-	.
.	.	.	.	.	.	.	.	.	.	.	.	.	.	.	.	.	.	.	4B\	-du-	.
.	4C# 4CC#/	.	.	.	.	.	.	.	.	.	.	.	.	.	.	.	.	.	4c#\	-xi	.
=55	=55	=55	=55	=55	=55	=55	=55	=55	=55	=55	=55	=55	=55	=55	=55	=55	=55	=55	=55	=55	=55
1ryy	4FF#/	1r	.	1ryy	.	.	.	1ryy	.	.	.	1ryy	.	.	1ryy	.	.	.	2A/	te	.
.	8GG#/L	.	.	.	.	.	.	.	.	.	.	.	.	.	.	.	.	.	.	.	.
.	8AA/J	.	.	.	.	.	.	.	.	.	.	.	.	.	.	.	.	.	.	.	.
.	4BB/	.	.	.	.	.	.	.	.	.	.	.	.	.	.	.	.	.	4r	.	.
.	4C#/	.	.	.	.	.	.	.	.	.	.	.	.	.	.	.	.	.	4C#/	de	.
!!LO:LB:g=original
=56	=56	=56	=56	=56	=56	=56	=56	=56	=56	=56	=56	=56	=56	=56	=56	=56	=56	=56	=56	=56	=56
*	*	*^	*	*	*	*	*	*	*	*	*	*	*	*	*	*	*	*	*	*	*
1ryy	2D 2DD\	[2.f#/	2r	.	1ryy	.	.	.	1ryy	.	.	.	1ryy	.	.	1ryy	.	.	.	4F#/	ter-	.
.	.	.	.	.	.	.	.	.	.	.	.	.	.	.	.	.	.	.	.	8G#/	-ra	.
.	.	.	.	.	.	.	.	.	.	.	.	.	.	.	.	.	.	.	.	8A/	Ae-	.
.	4BB\	.	2d\	.	.	.	.	.	.	.	.	.	.	.	.	.	.	.	.	(4B\	-gi-	.
.	4E\	8f#/L]	.	.	.	.	.	.	.	.	.	.	.	.	.	.	.	.	.	4c#\)	.	.
.	.	8g#/J	.	.	.	.	.	.	.	.	.	.	.	.	.	.	.	.	.	.	.	.
=57	=57	=57	=57	=57	=57	=57	=57	=57	=57	=57	=57	=57	=57	=57	=57	=57	=57	=57	=57	=57	=57	=57
1ryy	4AA/	1a	4c#\	.	1ryy	.	.	.	1ryy	.	.	.	1ryy	.	.	1ryy	.	.	.	4A/	-pti	.
.	8BB/L	.	8d\L	.	.	.	.	.	.	.	.	.	.	.	.	.	.	.	.	4r	.	.
.	8C#/J	.	8e\J	.	.	.	.	.	.	.	.	.	.	.	.	.	.	.	.	.	.	.
.	4D/	.	4f#\	.	.	.	.	.	.	.	.	.	.	.	.	.	.	.	.	4r	.	.
.	4E/	.	4e\	.	.	.	.	.	.	.	.	.	.	.	.	.	.	.	.	4c#\	pa-	.
=58	=58	=58	=58	=58	=58	=58	=58	=58	=58	=58	=58	=58	=58	=58	=58	=58	=58	=58	=58	=58	=58	=58
!	!	!	!	!	!	!	!	!	!	!	!	!	!	!	!	!	!	!	!	!LO:TX:a:t=C=:color=red	!	!
1ryy	2Gn 2GGn\	[2a/	2e 2c#\	.	1ryy	.	.	.	1ryy	.	.	.	1ryy	.	.	1ryy	.	.	.	(4e\	-ra-	.
.	.	.	.	.	.	.	.	.	.	.	.	.	.	.	.	.	.	.	.	8d\)	.	.
.	.	.	.	.	.	.	.	.	.	.	.	.	.	.	.	.	.	.	.	8c#\	-sti	.
.	2F# 2FF#\	2a/]	2d\	.	.	.	.	.	.	.	.	.	.	.	.	.	.	.	.	4d\	cru-	.
.	.	.	.	.	.	.	.	.	.	.	.	.	.	.	.	.	.	.	.	8A/	-cem,	.
.	.	.	.	.	.	.	.	.	.	.	.	.	.	.	.	.	.	.	.	8B/	pa-	.
=59	=59	=59	=59	=59	=59	=59	=59	=59	=59	=59	=59	=59	=59	=59	=59	=59	=59	=59	=59	=59	=59	=59
1ryy	2E 2EE\	2a/	2c#\	.	1ryy	.	.	.	1ryy	.	.	.	1ryy	.	.	1ryy	.	.	.	(4c#\	-ra-	.
.	.	.	.	.	.	.	.	.	.	.	.	.	.	.	.	.	.	.	.	8d\)	.	.
.	.	.	.	.	.	.	.	.	.	.	.	.	.	.	.	.	.	.	.	8c#\	-sti	.
.	2D 2DD\	2f#/	2B\	.	.	.	.	.	.	.	.	.	.	.	.	.	.	.	.	4B\	cru-	.
.	.	.	.	.	.	.	.	.	.	.	.	.	.	.	.	.	.	.	.	8F#/	-cem	.
.	.	.	.	.	.	.	.	.	.	.	.	.	.	.	.	.	.	.	.	8r	.	.
!!LO:LB:g=original
=60	=60	=60	=60	=60	=60	=60	=60	=60	=60	=60	=60	=60	=60	=60	=60	=60	=60	=60	=60	=60	=60	=60
1ryy	(4C#\	2.f#/	4A\	.	1ryy	.	.	.	1ryy	.	.	.	1ryy	.	.	1ryy	.	.	.	8A/	Sal-	.
.	.	.	.	.	.	.	.	.	.	.	.	.	.	.	.	.	.	.	.	8G#/	-va-	.
.	4BB\	.	4d\	.	.	.	.	.	.	.	.	.	.	.	.	.	.	.	.	8F#/	-to-	.
.	.	.	.	.	.	.	.	.	.	.	.	.	.	.	.	.	.	.	.	8d\	-ri[[s]]	.
.	4AA\	.	2c#\	.	.	.	.	.	.	.	.	.	.	.	.	.	.	.	.	4.c#\	tu-	.
.	4GG#\)	8g#L 8e#X/	.	.	.	.	.	.	.	.	.	.	.	.	.	.	.	.	.	.	.	.
.	.	8cc#/J	.	.	.	.	.	.	.	.	.	.	.	.	.	.	.	.	.	16c#\	-o.	.
!	!	!	!	!	!	!	!	!	!	!	!	!	!	!	!	!	!	!	!	!LO:TX:b:t=VS.	!	!
.	.	.	.	.	.	.	.	.	.	.	.	.	.	.	.	.	.	.	.	16r	.	.
*	*	*v	*v	*	*	*	*	*	*	*	*	*	*	*	*	*	*	*	*	*	*	*
!!LO:PB:g=original
=61	=61	=61	=61	=61	=61	=61	=61	=61	=61	=61	=61	=61	=61	=61	=61	=61	=61	=61	=61	=61	=61
*	*^	*	*	*	*	*	*	*	*	*	*	*	*	*	*	*	*	*	*	*	*
!	!LO:TX:b:i:t=ped.	!	!LO:TX:t=P:problem=kolejność znaków f# cc# g#	!LO:DY:rj	!	!	!	!LO:DY:a:rj	!LO:TX:t=P:problem=kolejność znaków F# c# G#	!	!	!LO:DY:a:rj	!LO:TX:t=P:problem=kolejność znaków f# cc# g#	!	!LO:DY:a:rj	!LO:TX:t=P:problem=kolejność znaków f# cc# g#	!	!	!LO:DY:a:rj	!	!	!
1ryy	2.c#/	[1F#	2cc# [2a/	p	4.F#^\	.	.	p	4.c#^\	.	.	p	4.a^/	.	p	4.cc#^\	San-	.	p	1ryy	.	.
.	.	.	.	.	8F#\	.	.	.	8c#\	.	.	.	8f#/	.	.	8a\	-ctus	.	.	.	.	.
.	.	.	4a] 4f#/	.	4F#\	.	.	.	4c#\	.	.	.	4f#/	.	.	4a\	De-	.	.	.	.	.
.	4A/	.	4cc# 4a/	.	4F#\	.	.	.	4A/	.	.	.	4a/	.	.	4cc#\	-us,	.	.	.	.	.
=62	=62	=62	=62	=62	=62	=62	=62	=62	=62	=62	=62	=62	=62	=62	=62	=62	=62	=62	=62	=62	=62	=62
1ryy	2A/	1F#_	2dd [2a/	.	4.F#\	.	.	.	4.A/	.	.	.	4.a/	.	.	4.dd^\	San-	.	.	1ryy	.	.
!	!	!	!	!	!LO:TX:t=cres-cen-do.:problem=dynamics with extention lines	!	!	!LO:HP:t=cres-cen-do.:ext=cd	!LO:TX:t=cres-cen-do:problem=dynamics with extention lines	!	!	!LO:HP:t=cres-cen-do:ext=cd	!LO:TX:t=cres-cen-do:problem=dynamics with extention lines	!	!LO:HP:t=cres-cen-do:ext=cd	!LO:TX:t=cres-cen-do:problem=dynamics with extention lines	!	!	!LO:HP:t=cres-cen-do:ext=cd	!	!	!
.	.	.	.	.	8F#\	.	.	<	8d\	.	.	<	8a/	.	<	8a/	-ctus	.	<	.	.	.
.	4d/	.	4a_< 4f#/	.	4F#\	.	.	.	4d\	.	.	.	4a/	.	.	4a/	for-	.	.	.	.	.
.	4A/	.	4dd 4a/]	.	4F#\	.	.	.	4A/	.	.	.	4a/	.	.	4dd\	-tis,	.	.	.	.	.
*	*v	*v	*	*	*	*	*	*	*	*	*	*	*	*	*	*	*	*	*	*	*	*
=63	=63	=63	=63	=63	=63	=63	=63	=63	=63	=63	=63	=63	=63	=63	=63	=63	=63	=63	=63	=63	=63
1ryy	1cn 1F#_	1dd#X 1a	.	4.F#\	.	.	.	4.cn\	.	.	.	4.a/	.	.	4.dd#X\	San-	.	.	1ryy	.	.
.	.	.	.	8F#\	.	.	.	8c\	.	.	.	8a/	.	.	8dd#\	-ctus	.	.	.	.	.
.	.	.	.	4F#\	.	.	.	4c\	.	.	.	4a/	.	.	4dd#\	im-	.	.	.	.	.
!	!	!	!	!LO:SIC:v:s=4F#\	!	!	!	!	!	!	!	!	!	!	!	!	!	!	!	!	!
.	.	.	.	4E\	.	.	.	4c\	.	.	.	4a/	.	.	4dd#\	-mor-	.	.	.	.	.
=64	=64	=64	=64	=64	=64	=64	=64	=64	=64	=64	=64	=64	=64	=64	=64	=64	=64	=64	=64	=64	=64
*	*^	*	*	*	*	*	*	*	*	*	*	*	*	*	*	*	*	*	*	*	*
1ryy	2B/	1F#]	2ee [2g#/	.	2F#\	.	.	.	2B\	.	.	.	2g#/	.	.	2ee\	-ta-	.	.	1ryy	.	.
.	2d/	.	2ee#X 2b 2g#/]	.	2F#\	.	.	[	2d\	.	.	[	2b\	.	[	2ee#X\	-lis,	.	[	.	.	.
=65	=65	=65	=65	=65	=65	=65	=65	=65	=65	=65	=65	=65	=65	=65	=65	=65	=65	=65	=65	=65	=65	=65
!	!	!	!	!LO:DY:rj	!	!	!	!LO:DY:a:rj	!	!	!	!LO:DY:a:rj	!	!	!LO:DY:a:rj	!	!	!	!LO:DY:a:rj	!	!	!
1ryy	2c# 2A 2F#\	2FF#\	4.ff# 4.a 4.f#/	f	4.F#\	.	.	f	4.c#\	.	.	f	4.a/	.	f	4.ff#\	mi-	.	f	1ryy	.	.
.	.	.	8cc# 8a/	.	8F#\	.	.	.	8A/	.	.	.	8a/	.	.	8cc#\	-se-	.	.	.	.	.
.	4d 4B 4E#X/	4EE#X\	4dd 4b 4g#/	.	4E#X\	.	.	.	4B/	.	.	.	4g#/	.	.	4cc#\	-re-	.	.	.	.	.
.	4c# 4A 4F#/	4FF#\	4cc# 4a/	.	4F#\	.	.	.	4A/	.	.	.	4a/	.	.	4b\	-re	.	.	.	.	.
!!LO:LB:g=original
=66	=66	=66	=66	=66	=66	=66	=66	=66	=66	=66	=66	=66	=66	=66	=66	=66	=66	=66	=66	=66	=66	=66
*	*	*^	*	*	*	*	*	*	*	*	*	*	*	*	*	*	*	*	*	*	*	*
1ryy	4d/	1F#	4BB\	4b [4f#/	.	4BB/	.	.	.	4d\	.	.	.	4f#/	.	.	4b/	mi-	.	.	1ryy	.	.
.	.	.	.	.	.	.	.	.	>	.	.	.	>	.	.	>	.	.	.	>	.	.	.
.	4c#/	.	4C#\	4a 4f#/]	.	4C#/	.	.	.	4c#\	.	.	.	4f#/	.	.	4a/	-se-	.	.	.	.	.
.	4B/	.	4D\	4g# 4f#/	.	4D\	.	.	.	4B\	.	.	.	4f#/	.	.	4g#/	-re-	.	.	.	.	.
!	!	!	!	!	!	!	!	!	!	!	!	!	!	!	!	!	!LO:TX:a:t==D:color=red	!	!	!	!	!	!
.	4F#/	.	4F#\	4f#/	.	4F#\	.	.	]	4F#/	.	.	]	4f#/	.	]	4f#/	-re	.	]	.	.	.
*	*	*v	*v	*	*	*	*	*	*	*	*	*	*	*	*	*	*	*	*	*	*	*	*
=67	=67	=67	=67	=67	=67	=67	=67	=67	=67	=67	=67	=67	=67	=67	=67	=67	=67	=67	=67	=67	=67	=67
*	*	*	*^	*	*	*	*	*	*	*	*	*	*	*	*	*	*	*	*	*	*	*
!	!	!	!	!	!LO:DY:rj	!	!	!	!LO:DY:a:rj	!	!	!	!LO:DY:a:rj	!	!	!LO:DY:a:rj	!	!	!	!LO:DY:a:rj	!	!	!
1ryy	2A/	1C#	1cc#	2f#\	p	1C#	.	.	p	(2A/	.	.	p	(2f#/	.	p	1cc#	no-	.	p	1ryy	.	.
.	2G#/	.	.	2e#X\	.	.	.	.	.	2G#/)	.	.	.	2e#X/)	.	.	.	.	.	.	.	.	.
*	*v	*v	*	*	*	*	*	*	*	*	*	*	*	*	*	*	*	*	*	*	*	*	*
=68	=68	=68	=68	=68	=68	=68	=68	=68	=68	=68	=68	=68	=68	=68	=68	=68	=68	=68	=68	=68	=68	=68
*	*^	*	*	*	*	*	*	*	*	*	*	*	*	*	*	*	*	*	*	*	*	*
*	*	*^	*	*	*	*	*	*	*	*	*	*	*	*	*	*	*	*	*	*	*	*	*
1ryy	4F#/	4.FF#\	4.FF#/	2a/	2f#\	.	2C#/	bis.	.	.	2F#/	-bis	.	.	2f#/	bis.	.	2a/	-bis	.	.	1ryy	.	.
.	4r	.	.	.	.	.	.	.	.	.	.	.	.	.	.	.	.	.	.	.	.	.	.	.
!	!	!	!	!	!	!LO:HP:b=2	!	!	!	!	!	!	!	!	!	!	!	!	!	!	!	!	!	!
.	.	(8C#/	8ryy	.	.	>	.	.	.	.	.	.	.	.	.	.	.	.	.	.	.	.	.	.
.	2rFF	8F#/L	2ryy	2r	2ryy	.	2r	.	.	.	2r	.	.	.	2r	.	.	2r	.	.	.	.	.	.
.	.	8A/	.	.	.	.	.	.	.	.	.	.	.	.	.	.	.	.	.	.	.	.	.	.
.	.	8c#>\	.	.	.	.	.	.	.	.	.	.	.	.	.	.	.	.	.	.	.	.	.	.
.	.	8f#>\J)	.	.	.	]	.	.	.	.	.	.	.	.	.	.	.	.	.	.	.	.	.	.
*	*v	*v	*v	*	*	*	*	*	*	*	*	*	*	*	*	*	*	*	*	*	*	*	*	*
=69	=69	=69	=69	=69	=69	=69	=69	=69	=69	=69	=69	=69	=69	=69	=69	=69	=69	=69	=69	=69	=69	=69
!	!	!	!	!	!	!	!	!	!	!	!	!	!	!	!	!	!	!	!	!LO:TX:t=P:problem=fragment zapisany na pięciolinii tenoru	!	!
!	!	!	!	!LO:DY:rj	!	!	!	!	!	!	!	!	!	!	!	!	!	!	!	!LO:TX:a:t=Solo	!	!
1ryy	1r	2a 2e/	2c#\	pp	1r	.	.	.	1ryy	.	.	.	1r	.	.	1r	.	.	.	8.A/	Po-	.
.	.	.	.	.	.	.	.	.	.	.	.	.	.	.	.	.	.	.	.	16A/	-pu-	.
.	.	.	.	.	.	.	.	.	.	.	.	.	.	.	.	.	.	.	.	4A/	-le	.
.	.	2b/	2a 2f# 2d\	.	.	.	.	.	.	.	.	.	.	.	.	.	.	.	.	4B\	me-	.
.	.	.	.	.	.	.	.	.	.	.	.	.	.	.	.	.	.	.	.	16B\	-us,	.
.	.	.	.	.	.	.	.	.	.	.	.	.	.	.	.	.	.	.	.	16r	.	.
.	.	.	.	.	.	.	.	.	.	.	.	.	.	.	.	.	.	.	.	8B\	quid	.
=70	=70	=70	=70	=70	=70	=70	=70	=70	=70	=70	=70	=70	=70	=70	=70	=70	=70	=70	=70	=70	=70	=70
!	!	!	!	!	!	!	!	!	!	!	!	!	!	!	!	!	!	!	!	!LO:TX:a:t=A = B:note=podkreślone na czerwono	!	!
1ryy	1ryy	1byy 1g#yy	2e\yy	.	1ryy	.	.	.	1ryy	.	.	.	1ryy	.	.	1ryy	.	.	.	4.d\yy	fe-	.
.	.	.	.	.	.	.	.	.	.	.	.	.	.	.	.	.	.	.	.	8d\yy	-ci	.
.	.	.	2e#X\yy	.	.	.	.	.	.	.	.	.	.	.	.	.	.	.	.	4d\yy	ti-	.
.	.	.	.	.	.	.	.	.	.	.	.	.	.	.	.	.	.	.	.	8c#\yy	-bi	.
.	.	.	.	.	.	.	.	.	.	.	.	.	.	.	.	.	.	.	.	8ryy	.	.
=71	=71	=71	=71	=71	=71	=71	=71	=71	=71	=71	=71	=71	=71	=71	=71	=71	=71	=71	=71	=71	=71	=71
1ryy	1ryy	[y4a/yy	1f#yy	.	1ryy	.	.	.	1ryy	.	.	.	1ryy	.	.	1ryy	.	.	.	8.c#\yy	aut	.
.	.	.	.	.	.	.	.	.	.	.	.	.	.	.	.	.	.	.	.	16c#\yy	in	.
.	.	4cc#yy 4a/]yy	.	.	.	.	.	.	.	.	.	.	.	.	.	.	.	.	.	4c#\yy	quo	.
.	.	2ddyy 2byy 2a/yy	.	.	.	.	.	.	.	.	.	.	.	.	.	.	.	.	.	4.d\yy	con-	.
.	.	.	.	.	.	.	.	.	.	.	.	.	.	.	.	.	.	.	.	8d\yy	-tri-	.
=72	=72	=72	=72	=72	=72	=72	=72	=72	=72	=72	=72	=72	=72	=72	=72	=72	=72	=72	=72	=72	=72	=72
*	*	*	*^	*	*	*	*	*	*	*	*	*	*	*	*	*	*	*	*	*	*	*
1ryy	1ryy	2dd#/yy	(y>4ccn\yy	2ayy 2fn\yy	.	1ryy	.	.	.	1ryy	.	.	.	1ryy	.	.	1ryy	.	.	.	4.d#X\yy	-sta-	.
.	.	.	4b\)yy	.	.	.	.	.	.	.	.	.	.	.	.	.	.	.	.	.	.	.	.
.	.	.	.	.	.	.	.	.	.	.	.	.	.	.	.	.	.	.	.	.	8d#\yy	-vi	.
.	.	2eeyy 2byy 2g#/yy	4e\yy	2ryy	.	.	.	.	.	.	.	.	.	.	.	.	.	.	.	.	4e\yy	me?	.
.	.	.	4d\yy	.	.	.	.	.	.	.	.	.	.	.	.	.	.	.	.	.	8ryy	.	.
.	.	.	.	.	.	.	.	.	.	.	.	.	.	.	.	.	.	.	.	.	8e\yy	res-	.
*	*	*	*v	*v	*	*	*	*	*	*	*	*	*	*	*	*	*	*	*	*	*	*	*
!!LO:LB:g=original
=73	=73	=73	=73	=73	=73	=73	=73	=73	=73	=73	=73	=73	=73	=73	=73	=73	=73	=73	=73	=73	=73	=73
1ryy	[y4c#\yy	(y4a/yy	[y2e\yy	.	1ryy	.	.	.	1ryy	.	.	.	1ryy	.	.	1ryy	.	.	.	4.e\yy	-pon-	.
.	4c#_yy 4B\yy	[y4gn/)yy	.	.	.	.	.	.	.	.	.	.	.	.	.	.	.	.	.	.	.	.
.	.	.	.	.	.	.	.	.	.	.	.	.	.	.	.	.	.	.	.	8Gn/yy	-de	.
.	8c#]yy 8A#X\yy	8g/L]yy	8e\]yy	.	.	.	.	.	.	.	.	.	.	.	.	.	.	.	.	8G/yy	mi-	.
.	8r;yy	16f#/Jkyy	8ryy	.	.	.	.	.	.	.	.	.	.	.	.	.	.	.	.	16F#/yy	-hi.	.
.	.	16r;yy	.	.	.	.	.	.	.	.	.	.	.	.	.	.	.	.	.	16r;yy	.	.
.	4ryy	4ryy	4ryy	.	.	.	.	.	.	.	.	.	.	.	.	.	.	.	.	8ryy	.	.
.	.	.	.	.	.	.	.	.	.	.	.	.	.	.	.	.	.	.	.	8c#\yy	Res-	.
*	*	*v	*v	*	*	*	*	*	*	*	*	*	*	*	*	*	*	*	*	*	*	*
=74	=74	=74	=74	=74	=74	=74	=74	=74	=74	=74	=74	=74	=74	=74	=74	=74	=74	=74	=74	=74	=74
1ryy	[y4B\yy	2f#yy 2d/yy	.	1ryy	.	.	.	1ryy	.	.	.	1ryy	.	.	1ryy	.	.	.	4.d\yy	-pon-	.
.	4B]yy 4A\yy	.	.	.	.	.	.	.	.	.	.	.	.	.	.	.	.	.	.	.	.
.	.	.	.	.	.	.	.	.	.	.	.	.	.	.	.	.	.	.	8F#/yy	-de	.
.	2Byy 2G#\yy	2e#Xyy 2c#/yy	.	.	.	.	.	.	.	.	.	.	.	.	.	.	.	.	8E#X/yy	mi-	.
.	.	.	.	.	.	.	.	.	.	.	.	.	.	.	.	.	.	.	8G#/yy	-hi	.
.	.	.	.	.	.	.	.	.	.	.	.	.	.	.	.	.	.	.	4ryy	.	.
=75	=75	=75	=75	=75	=75	=75	=75	=75	=75	=75	=75	=75	=75	=75	=75	=75	=75	=75	=75	=75	=75
*	*	*^	*	*	*	*	*	*	*	*	*	*	*	*	*	*	*	*	*	*	*
1ryy	2A\yy	1f#yy	2c#\yy	.	1ryy	.	.	.	1ryy	.	.	.	1ryy	.	.	1ryy	.	.	.	4c#\yy	Po-	.
.	.	.	.	.	.	.	.	.	.	.	.	.	.	.	.	.	.	.	.	8d\yy	-pu-	.
.	.	.	.	.	.	.	.	.	.	.	.	.	.	.	.	.	.	.	.	8c#\yy	-le	.
.	2D/yy	.	2B\yy	.	.	.	.	.	.	.	.	.	.	.	.	.	.	.	.	2B\yy	me-	.
=76	=76	=76	=76	=76	=76	=76	=76	=76	=76	=76	=76	=76	=76	=76	=76	=76	=76	=76	=76	=76	=76	=76
*	*^	*	*	*	*	*	*	*	*	*	*	*	*	*	*	*	*	*	*	*	*	*
1ryy	8C#/Lyy	1CC#yy	8e#X/yy	4c#\yy	.	1ryy	.	.	.	1ryy	.	.	.	1ryy	.	.	1ryy	.	.	.	4c#\yy	-us	.
.	8E#X/yy	.	(y4g#/yy	.	.	.	.	.	.	.	.	.	.	.	.	.	.	.	.	.	.	.	.
.	8G#/yy	.	.	4ryy	.	.	.	.	.	.	.	.	.	.	.	.	.	.	.	.	8ryy	.	.
.	8B/Jyy	.	8c#/)yy	.	.	.	.	.	.	.	.	.	.	.	.	.	.	.	.	.	8c#\yy	quid	.
.	4A/yy	.	8cc#/Lyy	4ryy	.	.	.	.	.	.	.	.	.	.	.	.	.	.	.	.	4.c#\yy	fe-	.
.	.	.	8c#/yy	.	.	.	.	.	.	.	.	.	.	.	.	.	.	.	.	.	.	.	.
.	4F#/yy	.	8f#/yy	[y4f#\yy	.	.	.	.	.	.	.	.	.	.	.	.	.	.	.	.	.	.	.
.	.	.	8a/Jyy	.	.	.	.	.	.	.	.	.	.	.	.	.	.	.	.	.	8A/yy	-ci	.
!!LO:PB:g=original
=77	=77	=77	=77	=77	=77	=77	=77	=77	=77	=77	=77	=77	=77	=77	=77	=77	=77	=77	=77	=77	=77	=77	=77
!	!	!	!LO:TX:t=P:problem=brak zakończenia ligatury	!	!	!	!	!	!	!	!	!	!	!	!	!	!	!	!	!	!	!	!
1ryy	8C#/yy	4CC#\yy	(y4ayy (y4f#/]yy	4ryy	.	1ryy	.	.	.	1ryy	.	.	.	1ryy	.	.	1ryy	.	.	.	4A/yy	ti-	.
.	(y<4c#/yy	.	.	.	.	.	.	.	.	.	.	.	.	.	.	.	.	.	.	.	.	.	.
.	.	4ryy	8g#Lyy 8e#X/))yy	4e#\yy	.	.	.	.	.	.	.	.	.	.	.	.	.	.	.	.	8G#/yy	-bi?	.
.	8C#/)yy	.	8b/Jyy	.	.	.	.	.	.	.	.	.	.	.	.	.	.	.	.	.	16ryy	.	.
.	.	.	.	.	.	.	.	.	.	.	.	.	.	.	.	.	.	.	.	.	16B/yy	quid	.
.	8F#\Lyy	2ryy	4byy 4g#/yy	4ryy	.	.	.	.	.	.	.	.	.	.	.	.	.	.	.	.	4.A/yy	fe-	.
.	8E\yy	.	.	.	.	.	.	.	.	.	.	.	.	.	.	.	.	.	.	.	.	.	.
.	8D\yy	.	4f#/yy	4f#\yy	.	.	.	.	.	.	.	.	.	.	.	.	.	.	.	.	.	.	.
.	8C#\Jyy	.	.	.	.	.	.	.	.	.	.	.	.	.	.	.	.	.	.	.	8F#/yy	-ci	.
*	*	*	*v	*v	*	*	*	*	*	*	*	*	*	*	*	*	*	*	*	*	*	*	*
=78	=78	=78	=78	=78	=78	=78	=78	=78	=78	=78	=78	=78	=78	=78	=78	=78	=78	=78	=78	=78	=78	=78
1ryy	2B/yy	2F#yy 2BB\yy	2f#yy 2d;/yy	.	1ryy	.	.	.	1ryy	.	.	.	1ryy	.	.	1ryy	.	.	.	2d;\yy	ti-	.
.	2r;yy	2ryy	2r;yy	.	.	.	.	.	.	.	.	.	.	.	.	.	.	.	.	4B\yy	-bi?	.
.	.	.	.	.	.	.	.	.	.	.	.	.	.	.	.	.	.	.	.	4r;yy	.	.
*	*v	*v	*	*	*	*	*	*	*	*	*	*	*	*	*	*	*	*	*	*	*	*
=79	=79	=79	=79	=79	=79	=79	=79	=79	=79	=79	=79	=79	=79	=79	=79	=79	=79	=79	=79	=79	=79
1ryy	4FF#/	1r	.	1r	.	.	.	1r	.	.	.	1r	.	.	1r	.	.	.	1r	.	.
.	8GG#/L	.	.	.	.	.	.	.	.	.	.	.	.	.	.	.	.	.	.	.	.
.	8AA/J	.	.	.	.	.	.	.	.	.	.	.	.	.	.	.	.	.	.	.	.
.	4BB/	.	.	.	.	.	.	.	.	.	.	.	.	.	.	.	.	.	.	.	.
.	4C#/	.	.	.	.	.	.	.	.	.	.	.	.	.	.	.	.	.	.	.	.
!!LO:PB:g=original
=80	=80	=80	=80	=80	=80	=80	=80	=80	=80	=80	=80	=80	=80	=80	=80	=80	=80	=80	=80	=80	=80
1ryy	2.D 2.DD/	1r	.	1ryy	.	.	.	1ryy	.	.	.	1ryy	.	.	1ryy	.	.	.	4F#/	Qui-	.
.	.	.	.	.	.	.	.	.	.	.	.	.	.	.	.	.	.	.	8G#/	-a	.
.	.	.	.	.	.	.	.	.	.	.	.	.	.	.	.	.	.	.	8A/	e-	.
.	.	.	.	.	.	.	.	.	.	.	.	.	.	.	.	.	.	.	4B\	-du-	.
.	4C# 4CC#/	.	.	.	.	.	.	.	.	.	.	.	.	.	.	.	.	.	4c#\	-xi	.
=81	=81	=81	=81	=81	=81	=81	=81	=81	=81	=81	=81	=81	=81	=81	=81	=81	=81	=81	=81	=81	=81
1ryy	4FF#/	1r	.	1ryy	.	.	.	1ryy	.	.	.	1ryy	.	.	1ryy	.	.	.	4A/	te	.
.	8GG#/L	.	.	.	.	.	.	.	.	.	.	.	.	.	.	.	.	.	4r	.	.
.	8AA/J	.	.	.	.	.	.	.	.	.	.	.	.	.	.	.	.	.	.	.	.
.	4BB/	.	.	.	.	.	.	.	.	.	.	.	.	.	.	.	.	.	4r	.	.
.	4C#/	.	.	.	.	.	.	.	.	.	.	.	.	.	.	.	.	.	4F#/	e-	.
=82	=82	=82	=82	=82	=82	=82	=82	=82	=82	=82	=82	=82	=82	=82	=82	=82	=82	=82	=82	=82	=82
*	*	*^	*	*	*	*	*	*	*	*	*	*	*	*	*	*	*	*	*	*	*
1ryy	2D 2DD/	[2.f#/	2r	.	1ryy	.	.	.	1ryy	.	.	.	1ryy	.	.	1ryy	.	.	.	4F#/	-du-	.
.	.	.	.	.	.	.	.	.	.	.	.	.	.	.	.	.	.	.	.	8G#/	-xi	.
.	.	.	.	.	.	.	.	.	.	.	.	.	.	.	.	.	.	.	.	8A/	te	.
.	4BB/	.	2d\	.	.	.	.	.	.	.	.	.	.	.	.	.	.	.	.	4B\	per	.
.	4E/	8f#/L]	.	.	.	.	.	.	.	.	.	.	.	.	.	.	.	.	.	4c#\	de-	.
.	.	8g#/J	.	.	.	.	.	.	.	.	.	.	.	.	.	.	.	.	.	.	.	.
=83	=83	=83	=83	=83	=83	=83	=83	=83	=83	=83	=83	=83	=83	=83	=83	=83	=83	=83	=83	=83	=83	=83
1ryy	4AA/	1a	4c#\	.	1ryy	.	.	.	1ryy	.	.	.	1ryy	.	.	1ryy	.	.	.	2A/	-ser-	.
.	8BB/L	.	8d\L	.	.	.	.	.	.	.	.	.	.	.	.	.	.	.	.	.	.	.
.	8C#/J	.	8e\J	.	.	.	.	.	.	.	.	.	.	.	.	.	.	.	.	.	.	.
.	4D/	.	4f#\	.	.	.	.	.	.	.	.	.	.	.	.	.	.	.	.	4A/	-tum	.
.	4E/	.	4e\	.	.	.	.	.	.	.	.	.	.	.	.	.	.	.	.	4r	.	.
=84	=84	=84	=84	=84	=84	=84	=84	=84	=84	=84	=84	=84	=84	=84	=84	=84	=84	=84	=84	=84	=84	=84
1ryy	2Gn 2GGn/	1a	2e 2c#\	.	1ryy	.	.	.	1ryy	.	.	.	1ryy	.	.	1ryy	.	.	.	(4e\	qua-	.
.	.	.	.	.	.	.	.	.	.	.	.	.	.	.	.	.	.	.	.	8d\)	.	.
.	.	.	.	.	.	.	.	.	.	.	.	.	.	.	.	.	.	.	.	8c#\	-dra-	.
.	2F# 2FF#/	.	2d\	.	.	.	.	.	.	.	.	.	.	.	.	.	.	.	.	4d\	-gin-	.
.	.	.	.	.	.	.	.	.	.	.	.	.	.	.	.	.	.	.	.	8A\L	-ta	.
.	.	.	.	.	.	.	.	.	.	.	.	.	.	.	.	.	.	.	.	8B\J	.	.
!!LO:LB:g=original
=85	=85	=85	=85	=85	=85	=85	=85	=85	=85	=85	=85	=85	=85	=85	=85	=85	=85	=85	=85	=85	=85	=85
1ryy	2E 2EE/	2a/	2c#\	.	1ryy	.	.	.	1ryy	.	.	.	1ryy	.	.	1ryy	.	.	.	(4c#\	ani-	.
.	.	.	.	.	.	.	.	.	.	.	.	.	.	.	.	.	.	.	.	8d\L	.	.
.	.	.	.	.	.	.	.	.	.	.	.	.	.	.	.	.	.	.	.	8c#\J)	.	.
.	2D 2DD/	2f#/	2B\	.	.	.	.	.	.	.	.	.	.	.	.	.	.	.	.	8B\	-nis	.
.	.	.	.	.	.	.	.	.	.	.	.	.	.	.	.	.	.	.	.	8r	.	.
.	.	.	.	.	.	.	.	.	.	.	.	.	.	.	.	.	.	.	.	4F#/	et	.
=86	=86	=86	=86	=86	=86	=86	=86	=86	=86	=86	=86	=86	=86	=86	=86	=86	=86	=86	=86	=86	=86	=86
*	*	*	*^	*	*	*	*	*	*	*	*	*	*	*	*	*	*	*	*	*	*	*
1ryy	4C#/	2.f#/	4A\	2.ryy	.	1ryy	.	.	.	1ryy	.	.	.	1ryy	.	.	1ryy	.	.	.	8A/L	man-	.
.	.	.	.	.	.	.	.	.	.	.	.	.	.	.	.	.	.	.	.	.	8G#/J	.	.
.	4BB/	.	4d\	.	.	.	.	.	.	.	.	.	.	.	.	.	.	.	.	.	8F#/	-na	.
.	.	.	.	.	.	.	.	.	.	.	.	.	.	.	.	.	.	.	.	.	8d\	ci-	.
.	4AA/	.	2c#\	.	.	.	.	.	.	.	.	.	.	.	.	.	.	.	.	.	4.c#\	-ba-	.
.	4GG#/	8g#/L	.	4e#X\	.	.	.	.	.	.	.	.	.	.	.	.	.	.	.	.	.	.	.
.	.	8b/J	.	.	.	.	.	.	.	.	.	.	.	.	.	.	.	.	.	.	8G#/	-vi	.
*	*	*	*v	*v	*	*	*	*	*	*	*	*	*	*	*	*	*	*	*	*	*	*	*
=87	=87	=87	=87	=87	=87	=87	=87	=87	=87	=87	=87	=87	=87	=87	=87	=87	=87	=87	=87	=87	=87	=87
*	*^	*	*	*	*	*	*	*	*	*	*	*	*	*	*	*	*	*	*	*	*	*
*	*	*^	*	*	*	*	*	*	*	*	*	*	*	*	*	*	*	*	*	*	*	*	*
1ryy	2F#/	4FF#/	2ryy	4a 4f#/	2c#\	.	1ryy	.	.	.	1ryy	.	.	.	1ryy	.	.	1ryy	.	.	.	4A/	te	.
.	.	8GG#/L	.	8g#/L	.	.	.	.	.	.	.	.	.	.	.	.	.	.	.	.	.	4r	.	.
.	.	8AA/J	.	8f#/J	.	.	.	.	.	.	.	.	.	.	.	.	.	.	.	.	.	.	.	.
.	2G#/	4BB\	4BB/	4f#/	4d\	.	.	.	.	.	.	.	.	.	.	.	.	.	.	.	.	2r	.	.
.	.	4C#\	4ryy	4e#X/	4c#\	.	.	.	.	.	.	.	.	.	.	.	.	.	.	.	.	.	.	.
*	*	*v	*v	*	*	*	*	*	*	*	*	*	*	*	*	*	*	*	*	*	*	*	*	*
=88	=88	=88	=88	=88	=88	=88	=88	=88	=88	=88	=88	=88	=88	=88	=88	=88	=88	=88	=88	=88	=88	=88	=88
1ryy	2.F#/	2.D\	2.f# 2.B/	2.ryy	.	1ryy	.	.	.	1ryy	.	.	.	1ryy	.	.	1ryy	.	.	.	4F#/	et	.
.	.	.	.	.	.	.	.	.	.	.	.	.	.	.	.	.	.	.	.	.	8G#/	in-	.
.	.	.	.	.	.	.	.	.	.	.	.	.	.	.	.	.	.	.	.	.	8A/	-tro-	.
.	.	.	.	.	.	.	.	.	.	.	.	.	.	.	.	.	.	.	.	.	4B\	-du-	.
.	4E#X/	4C#\	4c#/	4B\	.	.	.	.	.	.	.	.	.	.	.	.	.	.	.	.	4c#\	-xi	.
=89	=89	=89	=89	=89	=89	=89	=89	=89	=89	=89	=89	=89	=89	=89	=89	=89	=89	=89	=89	=89	=89	=89	=89
1ryy	2F#/	4FF#\	4a/	2c# 2A\	.	1ryy	.	.	.	1ryy	.	.	.	1ryy	.	.	1ryy	.	.	.	2A/	te	.
.	.	8GG#\L	8g#/L	.	.	.	.	.	.	.	.	.	.	.	.	.	.	.	.	.	.	.	.
.	.	8AA\J	8f#/J	.	.	.	.	.	.	.	.	.	.	.	.	.	.	.	.	.	.	.	.
.	2G#/	4BB\	4f#/	4d\	.	.	.	.	.	.	.	.	.	.	.	.	.	.	.	.	4r	.	.
.	.	4C#\	4e#X/	8c#\L	.	.	.	.	.	.	.	.	.	.	.	.	.	.	.	.	4C#/	in	.
.	.	.	.	8B\J	.	.	.	.	.	.	.	.	.	.	.	.	.	.	.	.	.	.	.
*	*v	*v	*	*	*	*	*	*	*	*	*	*	*	*	*	*	*	*	*	*	*	*	*
!!LO:LB:g=original
=90	=90	=90	=90	=90	=90	=90	=90	=90	=90	=90	=90	=90	=90	=90	=90	=90	=90	=90	=90	=90	=90	=90
1ryy	2D 2DD/	[2.f#/	2A\	.	1ryy	.	.	.	1ryy	.	.	.	1ryy	.	.	1ryy	.	.	.	(4F#/	ter-	.
.	.	.	.	.	.	.	.	.	.	.	.	.	.	.	.	.	.	.	.	8G#/)	.	.
.	.	.	.	.	.	.	.	.	.	.	.	.	.	.	.	.	.	.	.	8A/	-ra	.
.	4BB/	.	2d\	.	.	.	.	.	.	.	.	.	.	.	.	.	.	.	.	4B\	sa-	.
.	4E/	8f#/L]	.	.	.	.	.	.	.	.	.	.	.	.	.	.	.	.	.	4c#\	-tis	.
.	.	8g#/J	.	.	.	.	.	.	.	.	.	.	.	.	.	.	.	.	.	.	.	.
=91	=91	=91	=91	=91	=91	=91	=91	=91	=91	=91	=91	=91	=91	=91	=91	=91	=91	=91	=91	=91	=91	=91
1ryy	4AA\	1a	4c#\	.	1ryy	.	.	.	1ryy	.	.	.	1ryy	.	.	1ryy	.	.	.	2A/	bo-	.
.	8BB\L	.	8d\L	.	.	.	.	.	.	.	.	.	.	.	.	.	.	.	.	.	.	.
.	8C#\J	.	8e\J	.	.	.	.	.	.	.	.	.	.	.	.	.	.	.	.	.	.	.
.	4D\	.	4f#\	.	.	.	.	.	.	.	.	.	.	.	.	.	.	.	.	8A/	-nam,	.
.	.	.	.	.	.	.	.	.	.	.	.	.	.	.	.	.	.	.	.	8r	.	.
.	4E\	.	4e\	.	.	.	.	.	.	.	.	.	.	.	.	.	.	.	.	4c#\	pa-	.
=92	=92	=92	=92	=92	=92	=92	=92	=92	=92	=92	=92	=92	=92	=92	=92	=92	=92	=92	=92	=92	=92	=92
!	!	!	!	!	!	!	!	!	!	!	!	!	!	!	!	!	!	!	!	!LO:TX:a:t=C = D.:note=podkreślone na czerwono	!	!
1ryy	2Gnyy 2GGn\yy	[y2a/yy	2eyy 2c#\yy	.	1ryy	.	.	.	1ryy	.	.	.	1ryy	.	.	1ryy	.	.	.	(y4e\yy	-ra-	.
.	.	.	.	.	.	.	.	.	.	.	.	.	.	.	.	.	.	.	.	8d\)yy	.	.
.	.	.	.	.	.	.	.	.	.	.	.	.	.	.	.	.	.	.	.	8c#\yy	-sti	.
.	2F#yy 2FF#\yy	2a/]yy	2d\yy	.	.	.	.	.	.	.	.	.	.	.	.	.	.	.	.	4d\yy	cru-	.
.	.	.	.	.	.	.	.	.	.	.	.	.	.	.	.	.	.	.	.	8A/yy	-cem,	.
.	.	.	.	.	.	.	.	.	.	.	.	.	.	.	.	.	.	.	.	8B\yy	pa-	.
=93	=93	=93	=93	=93	=93	=93	=93	=93	=93	=93	=93	=93	=93	=93	=93	=93	=93	=93	=93	=93	=93	=93
1ryy	2Eyy 2EE\yy	2a/yy	2c#\yy	.	1ryy	.	.	.	1ryy	.	.	.	1ryy	.	.	1ryy	.	.	.	(y4c#\yy	-ra-	.
.	.	.	.	.	.	.	.	.	.	.	.	.	.	.	.	.	.	.	.	8d\)yy	.	.
.	.	.	.	.	.	.	.	.	.	.	.	.	.	.	.	.	.	.	.	8c#\yy	-sti	.
.	2Dyy 2DD\yy	2f#/yy	2B\yy	.	.	.	.	.	.	.	.	.	.	.	.	.	.	.	.	4B\yy	cru-	.
.	.	.	.	.	.	.	.	.	.	.	.	.	.	.	.	.	.	.	.	8F#/yy	-cem	.
.	.	.	.	.	.	.	.	.	.	.	.	.	.	.	.	.	.	.	.	8ryy	.	.
!!LO:LB:g=original
=94	=94	=94	=94	=94	=94	=94	=94	=94	=94	=94	=94	=94	=94	=94	=94	=94	=94	=94	=94	=94	=94	=94
1ryy	(y4C#\yy	2.f#/yy	4A\yy	.	1ryy	.	.	.	1ryy	.	.	.	1ryy	.	.	1ryy	.	.	.	8A/yy	Sal-	.
.	.	.	.	.	.	.	.	.	.	.	.	.	.	.	.	.	.	.	.	8G#/yy	-va-	.
.	4BB\yy	.	4d\yy	.	.	.	.	.	.	.	.	.	.	.	.	.	.	.	.	8F#/yy	-to-	.
.	.	.	.	.	.	.	.	.	.	.	.	.	.	.	.	.	.	.	.	8d\yy	-ri[[s]]	.
.	4AA\yy	.	2c#\yy	.	.	.	.	.	.	.	.	.	.	.	.	.	.	.	.	4.c#\yy	tu-	.
.	4GG#\)yy	8g#Lyy 8e#X/yy	.	.	.	.	.	.	.	.	.	.	.	.	.	.	.	.	.	.	.	.
.	.	8cc#/Jyy	.	.	.	.	.	.	.	.	.	.	.	.	.	.	.	.	.	16c#\yy	-o.	.
!	!	!	!	!	!	!	!	!	!	!	!	!	!	!	!	!	!	!	!	!LO:TX:b:t=VS.	!	!
.	.	.	.	.	.	.	.	.	.	.	.	.	.	.	.	.	.	.	.	16ryy	.	.
*	*	*v	*v	*	*	*	*	*	*	*	*	*	*	*	*	*	*	*	*	*	*	*
!!LO:PB:g=original
=95	=95	=95	=95	=95	=95	=95	=95	=95	=95	=95	=95	=95	=95	=95	=95	=95	=95	=95	=95	=95	=95
*	*^	*	*	*	*	*	*	*	*	*	*	*	*	*	*	*	*	*	*	*	*
!	!LO:N:vis=1.	!	!	!	!	!	!	!	!	!	!	!	!	!	!	!	!	!	!	!	!	!
!	!LO:TX:b:i:t=ped.	!	!	!LO:DY:rj	!	!	!	!LO:DY:a:rj	!	!	!	!LO:DY:a:rj	!	!	!LO:DY:a:rj	!	!	!	!LO:DY:a:rj	!	!	!
1ryy	2.c#/yy	[1F#yy	2cc#yy [y2a/yy	py	4.F#^\yy	.	.	py	4.c#^\yy	.	.	py	4.a^/yy	.	py	4.cc#^\yy	San-	.	py	1ryy	.	.
.	.	.	.	.	8F#\yy	.	.	.	8c#\yy	.	.	.	8f#/yy	.	.	8a\yy	-ctus	.	.	.	.	.
.	.	.	4a]yy 4f#/yy	.	4F#\yy	.	.	.	4c#\yy	.	.	.	4f#/yy	.	.	4a\yy	De-	.	.	.	.	.
.	4A/yy	.	4cc#yy 4a/yy	.	4F#\yy	.	.	.	4A/yy	.	.	.	4a/yy	.	.	4cc#\yy	-us,	.	.	.	.	.
=96	=96	=96	=96	=96	=96	=96	=96	=96	=96	=96	=96	=96	=96	=96	=96	=96	=96	=96	=96	=96	=96	=96
1ryy	2A/yy	1F#_yy	2ddyy [y2a/yy	.	4.F#\yy	.	.	.	4.A/yy	.	.	.	4.a/yy	.	.	4.dd^\yy	San-	.	.	1ryy	.	.
!	!	!	!	!	!LO:TX:t=cres-cen-do.:problem=dynamics with extention lines	!	!	!LO:HP:t=cres-cen-do.:ext=cd	!LO:TX:t=cres-cen-do:problem=dynamics with extention lines	!	!	!LO:HP:t=cres-cen-do:ext=cd	!LO:TX:t=cres-cen-do:problem=dynamics with extention lines	!	!LO:HP:t=cres-cen-do:ext=cd	!LO:TX:t=cres-cen-do:problem=dynamics with extention lines	!	!	!LO:HP:t=cres-cen-do:ext=cd	!	!	!
.	.	.	.	.	8F#\yy	.	.	<	8d\yy	.	.	<	8a/yy	.	<	8a/yy	-ctus	.	<	.	.	.
.	4d/yy	.	4a_<yy 4f#/yy	.	4F#\yy	.	.	.	4d\yy	.	.	.	4a/yy	.	.	4a/yy	for-	.	.	.	.	.
.	4A/yy	.	4ddyy 4a/]yy	.	4F#\yy	.	.	.	4A/yy	.	.	.	4a/yy	.	.	4dd\yy	-tis,	.	.	.	.	.
*	*v	*v	*	*	*	*	*	*	*	*	*	*	*	*	*	*	*	*	*	*	*	*
=97	=97	=97	=97	=97	=97	=97	=97	=97	=97	=97	=97	=97	=97	=97	=97	=97	=97	=97	=97	=97	=97
1ryy	1cnyy 1F#_yy	1dd#Xyy 1ayy	.	4.F#\yy	.	.	.	4.cn\yy	.	.	.	4.a/yy	.	.	4.dd#X\yy	San-	.	.	1ryy	.	.
.	.	.	.	8F#\yy	.	.	.	8c\yy	.	.	.	8a/yy	.	.	8dd#\yy	-ctus	.	.	.	.	.
.	.	.	.	4F#\yy	.	.	.	4c\yy	.	.	.	4a/yy	.	.	4dd#\yy	im-	.	.	.	.	.
!	!	!	!	!LO:SIC:v:s=4F#\	!	!	!	!	!	!	!	!	!	!	!	!	!	!	!	!	!
.	.	.	.	4E\yy	.	.	.	4c\yy	.	.	.	4a/yy	.	.	4dd#\yy	-mor-	.	.	.	.	.
=98	=98	=98	=98	=98	=98	=98	=98	=98	=98	=98	=98	=98	=98	=98	=98	=98	=98	=98	=98	=98	=98
*	*^	*	*	*	*	*	*	*	*	*	*	*	*	*	*	*	*	*	*	*	*
1ryy	2B/yy	1F#]yy	2eeyy [y2g#/yy	.	2F#\yy	.	.	.	2B\yy	.	.	.	2g#/yy	.	.	2ee\yy	-ta-	.	.	1ryy	.	.
.	2d/yy	.	2ee#Xyy 2byy 2g#/]yy	.	2F#\yy	.	.	[	2d\yy	.	.	[	2b\yy	.	[	2ee#X\yy	-lis,	.	[	.	.	.
=99	=99	=99	=99	=99	=99	=99	=99	=99	=99	=99	=99	=99	=99	=99	=99	=99	=99	=99	=99	=99	=99	=99
!	!	!	!	!LO:DY:rj	!	!	!	!LO:DY:a:rj	!	!	!	!LO:DY:a:rj	!	!	!LO:DY:a:rj	!	!	!	!LO:DY:a:rj	!	!	!
1ryy	2c#yy 2Ayy 2F#\yy	2FF#\yy	4.ff#yy 4.ayy 4.f#/yy	fy	4.F#\yy	.	.	fy	4.c#\yy	.	.	fy	4.a/yy	.	fy	4.ff#\yy	mi-	.	fy	1ryy	.	.
.	.	.	8cc#yy 8a/yy	.	8F#\yy	.	.	.	8A/yy	.	.	.	8a/yy	.	.	8cc#\yy	-se-	.	.	.	.	.
.	4dyy 4Byy 4E#X/yy	4EE#X\yy	4ddyy 4byy 4g#/yy	.	4E#X\yy	.	.	.	4B/yy	.	.	.	4g#/yy	.	.	4cc#\yy	-re-	.	.	.	.	.
.	4c#yy 4Ayy 4F#/yy	4FF#\yy	4cc#yy 4a/yy	.	4F#\yy	.	.	.	4A/yy	.	.	.	4a/yy	.	.	4b\yy	-re	.	.	.	.	.
!!LO:LB:g=original
=100	=100	=100	=100	=100	=100	=100	=100	=100	=100	=100	=100	=100	=100	=100	=100	=100	=100	=100	=100	=100	=100	=100
*	*	*^	*	*	*	*	*	*	*	*	*	*	*	*	*	*	*	*	*	*	*	*
1ryy	4d/yy	1F#yy	4BB\yy	4byy [y4f#/yy	.	4BB/yy	.	.	.	4d\yy	.	.	.	4f#/yy	.	.	4b/yy	mi-	.	.	1ryy	.	.
.	.	.	.	.	.	.	.	.	>	.	.	.	>	.	.	>	.	.	.	>	.	.	.
.	4c#/yy	.	4C#\yy	4ayy 4f#/]yy	.	4C#/yy	.	.	.	4c#\yy	.	.	.	4f#/yy	.	.	4a/yy	-se-	.	.	.	.	.
.	4B/yy	.	4D\yy	4g#yy 4f#/yy	.	4D\yy	.	.	.	4B\yy	.	.	.	4f#/yy	.	.	4g#/yy	-re-	.	.	.	.	.
.	4F#/yy	.	4F#\yy	4f#/yy	.	4F#\yy	.	.	]	4F#/yy	.	.	]	4f#/yy	.	]	4f#/yy	-re	.	]	.	.	.
*	*	*v	*v	*	*	*	*	*	*	*	*	*	*	*	*	*	*	*	*	*	*	*	*
!!LO:PB:g=original
=101	=101	=101	=101	=101	=101	=101	=101	=101	=101	=101	=101	=101	=101	=101	=101	=101	=101	=101	=101	=101	=101	=101
*	*	*	*^	*	*	*	*	*	*	*	*	*	*	*	*	*	*	*	*	*	*	*
1ryy	4A/	1C#	2cc#/	2f#\	.	1C#	.	.	.	(4A/	.	.	.	2f#/	no	.	1cc#	no	.	.	1r	.	.
.	4A#X/	.	.	.	.	.	.	.	.	4A#X/	.	.	.	.	.	.	.	.	.	.	.	.	.
.	N(2c#/	.	2g#/	2e#X\	.	.	.	.	.	4c#\	.	.	.	2e#X/	.	.	.	.	.	.	.	.	.
.	.	.	.	.	.	.	.	.	.	4B\)	.	.	.	.	.	.	.	.	.	.	.	.	.
*	*v	*v	*	*	*	*	*	*	*	*	*	*	*	*	*	*	*	*	*	*	*	*	*
*	*	*v	*v	*	*	*	*	*	*	*	*	*	*	*	*	*	*	*	*	*	*	*
=102	=102	=102	=102	=102	=102	=102	=102	=102	=102	=102	=102	=102	=102	=102	=102	=102	=102	=102	=102	=102	=102
*	*k[f#c#g#d#a#e#]	*k[f#c#g#d#a#e#]	*	*k[f#c#g#d#a#e#]	*	*	*	*k[f#c#g#d#a#e#]	*	*	*	*k[f#c#g#d#a#e#]	*	*	*k[f#c#g#d#a#e#]	*	*	*	*k[f#c#g#d#a#e#]	*	*
*	*^	*^	*	*	*	*	*	*	*	*	*	*	*	*	*	*	*	*	*	*	*
!	!	!	!	!	!	!	!	!	!	!	!	!	!	!	!	!	!	!	!	!	!LO:TX:t=P:problem=kolejność znaków F# c# G# d# A# e#	!	!
!	!LO:TX:t=P:problem=kolejność znaków F# C# G# D# A# E#	!	!LO:TX:t=P:problem=kolejność znaków f# cc# g# dd# a# ee#	!	!LO:DY:rj	!LO:TX:t=P:problem=kolejność znaków F# C# G# D# A# E#	!	!	!	!LO:TX:t=P:problem=kolejność znaków F# c# G# d# A# e#	!	!	!	!LO:TX:t=P:problem=kolejność znaków f# cc# g# dd# a# ee#	!	!	!LO:TX:t=P:problem=kolejność znaków f# cc# g# dd# a# ee#	!	!	!	!LO:TX:t=P:problem=fragment zapisany na pięciolinii T	!	!
1ryy	2FF#/	4FF#\	2a# 2f#/	1c#N)	p	4F#\	.	.	.	4A#\	.	.	.	4f#/	.	.	4f#/	.	.	.	4r	.	.
!	!	!	!	!	!	!	!	!	!	!	!	!	!	!	!	!	!	!	!	!	!LO:TX:a:t=Solo	!	!LO:DY:a:rj
.	.	4r	.	.	.	4r	.	.	.	4r	.	.	.	4r	.	.	4r	.	.	.	8A#/	E-	mf
.	.	.	.	.	.	.	.	.	.	.	.	.	.	.	.	.	.	.	.	.	8A#/	-go	.
.	2AA#/	2r	2f#/	.	.	2r	.	.	.	2r	.	.	.	2r	.	.	2r	.	.	.	4c#\	te	.
.	.	.	.	.	.	.	.	.	.	.	.	.	.	.	.	.	.	.	.	.	8B/L	po-	.
.	.	.	.	.	.	.	.	.	.	.	.	.	.	.	.	.	.	.	.	.	8A#/J	.	.
=103	=103	=103	=103	=103	=103	=103	=103	=103	=103	=103	=103	=103	=103	=103	=103	=103	=103	=103	=103	=103	=103	=103	=103
1ryy	1C#	1r	2a# 2f#/	2ryy	.	1r	.	.	.	1ryy	.	.	.	1r	.	.	1r	.	.	.	2A#/	-ta-	.
.	.	.	2g#/	4e#\	.	.	.	.	.	.	.	.	.	.	.	.	.	.	.	.	4G#/	-vi	.
.	.	.	.	4en\	.	.	.	.	.	.	.	.	.	.	.	.	.	.	.	.	4r	.	.
=104	=104	=104	=104	=104	=104	=104	=104	=104	=104	=104	=104	=104	=104	=104	=104	=104	=104	=104	=104	=104	=104	=104	=104
1ryy	(4GG#/	1r	4b/	2d#\	.	1r	.	.	.	1ryy	.	.	.	1r	.	.	1r	.	.	.	4B/	a-	.
.	8AA#/L	.	8a#/L	.	.	.	.	.	.	.	.	.	.	.	.	.	.	.	.	.	8A#/	-qua[[m]]	.
.	8BB/J	.	8g#/J	.	.	.	.	.	.	.	.	.	.	.	.	.	.	.	.	.	8G#/	sa-	.
.	4C#/	.	4g#/	8en\L	.	.	.	.	.	.	.	.	.	.	.	.	.	.	.	.	4G#/	-lu-	.
.	.	.	.	8c#\J	.	.	.	.	.	.	.	.	.	.	.	.	.	.	.	.	.	.	.
.	4D#/	.	4f##X/	4A#\	.	.	.	.	.	.	.	.	.	.	.	.	.	.	.	.	8F##X/	-tis	.
.	.	.	.	.	.	.	.	.	.	.	.	.	.	.	.	.	.	.	.	.	8A#/	de	.
=105	=105	=105	=105	=105	=105	=105	=105	=105	=105	=105	=105	=105	=105	=105	=105	=105	=105	=105	=105	=105	=105	=105	=105
1ryy	4.G#\	1rFF	[2g#/	[2B\	.	1r	.	.	.	1ryy	.	.	.	1r	.	.	1r	.	.	.	2G#/	pe-	.
.	8F#\	.	.	.	.	.	.	.	.	.	.	.	.	.	.	.	.	.	.	.	.	.	.
.	8En\)	.	8g#/]	8B\]	.	.	.	.	.	.	.	.	.	.	.	.	.	.	.	.	8D#/	-tro	.
.	8r	.	8r	8ryy	.	.	.	.	.	.	.	.	.	.	.	.	.	.	.	.	8r	.	.
!	!	!	!	!	!LO:DY:rj	!	!	!	!	!	!	!	!	!	!	!	!	!	!	!	!	!	!LO:DY:a:rj
.	8D#/	.	8b 8g# 8d#/	4ryy	pp	.	.	.	.	.	.	.	.	.	.	.	.	.	.	.	4B/	et	pp
.	8r	.	8r	.	.	.	.	.	.	.	.	.	.	.	.	.	.	.	.	.	.	.	.
*	*	*	*v	*v	*	*	*	*	*	*	*	*	*	*	*	*	*	*	*	*	*	*	*
=106	=106	=106	=106	=106	=106	=106	=106	=106	=106	=106	=106	=106	=106	=106	=106	=106	=106	=106	=106	=106	=106	=106
1ryy	1Dn;	1r	1b-X 1a-X 1fn;	.	1ryy	.	.	.	1ryy	.	.	.	1r;	.	.	1r;	.	.	.	2B-X\	tu...	.
.	.	.	.	.	.	.	.	.	.	.	.	.	.	.	.	.	.	.	.	2r;	.	.
*	*v	*v	*	*	*	*	*	*	*	*	*	*	*	*	*	*	*	*	*	*	*	*
!!LO:LB:g=original
=107	=107	=107	=107	=107	=107	=107	=107	=107	=107	=107	=107	=107	=107	=107	=107	=107	=107	=107	=107	=107	=107
*	*k[b-e-a-d-g-c-]	*k[b-e-a-d-g-c-]	*	*k[b-e-a-d-g-c-]	*	*	*	*k[b-e-a-d-g-c-]	*	*	*	*k[b-e-a-d-g-c-]	*	*	*k[b-e-a-d-g-c-]	*	*	*	*k[b-e-a-d-g-c-]	*	*
*	*^	*^	*	*	*	*	*	*	*	*	*	*	*	*	*	*	*	*	*	*	*
!	!	!	!	!	!LO:DY:rj	!	!	!	!	!	!	!	!	!	!	!	!	!	!	!	!	!	!LO:DY:a:rj
1ryy	2E-/	1r	2b-/	1g-	pp	1ryy	.	.	.	1ryy	.	.	.	1ryy	.	.	1ryy	.	.	.	4B-\	tu	p
.	.	.	.	.	.	.	.	.	.	.	.	.	.	.	.	.	.	.	.	.	8B-\	me	.
.	.	.	.	.	.	.	.	.	.	.	.	.	.	.	.	.	.	.	.	.	8B-\	po-	.
.	4e-/	.	4cc-/	.	.	.	.	.	.	.	.	.	.	.	.	.	.	.	.	.	4c-\	-ta-	.
.	4d-/	.	4dd-/	.	.	.	.	.	.	.	.	.	.	.	.	.	.	.	.	.	4d-\	-sti	.
=108	=108	=108	=108	=108	=108	=108	=108	=108	=108	=108	=108	=108	=108	=108	=108	=108	=108	=108	=108	=108	=108	=108	=108
1ryy	2c-/	1r	2ee-/	2g-\	.	1ryy	.	.	.	1ryy	.	.	.	1ryy	.	.	1ryy	.	.	.	4.e-\	fel-	.
.	.	.	.	.	.	.	.	.	.	.	.	.	.	.	.	.	.	.	.	.	8G-/	-le	.
.	2C-/	.	4g- 4e-/	[2e-\	.	.	.	.	.	.	.	.	.	.	.	.	.	.	.	.	4G-/	et	.
.	.	.	4a- 4f/	.	.	.	.	.	.	.	.	.	.	.	.	.	.	.	.	.	4A-/	a-	.
=109	=109	=109	=109	=109	=109	=109	=109	=109	=109	=109	=109	=109	=109	=109	=109	=109	=109	=109	=109	=109	=109	=109	=109
1ryy	2BB-/	1r	4b- 4g-/	4e-\]	.	1ryy	.	.	.	1ryy	.	.	.	1ryy	.	.	1ryy	.	.	.	1B-	-ce-	.
.	.	.	8a-L 8f/	4ryy	.	.	.	.	.	.	.	.	.	.	.	.	.	.	.	.	.	.	.
.	.	.	8g-J 8e-/	.	.	.	.	.	.	.	.	.	.	.	.	.	.	.	.	.	.	.	.
.	[2B-/	.	8.f/L	4.e-\	.	.	.	.	.	.	.	.	.	.	.	.	.	.	.	.	.	.	.
.	.	.	16g-/Jk	.	.	.	.	.	.	.	.	.	.	.	.	.	.	.	.	.	.	.	.
.	.	.	4a-/	.	.	.	.	.	.	.	.	.	.	.	.	.	.	.	.	.	.	.	.
.	.	.	.	8dn\	.	.	.	.	.	.	.	.	.	.	.	.	.	.	.	.	.	.	.
*	*	*	*v	*v	*	*	*	*	*	*	*	*	*	*	*	*	*	*	*	*	*	*	*
=110	=110	=110	=110	=110	=110	=110	=110	=110	=110	=110	=110	=110	=110	=110	=110	=110	=110	=110	=110	=110	=110	=110
1ryy	1B-] 1E-	1r	1g- 1e-	.	1ryy	.	.	.	1ryy	.	.	.	1ryy	.	.	1ryy	.	.	.	4E-/	-to.	.
.	.	.	.	.	.	.	.	.	.	.	.	.	.	.	.	.	.	.	.	4r	.	.
.	.	.	.	.	.	.	.	.	.	.	.	.	.	.	.	.	.	.	.	2r	.	.
*	*v	*v	*	*	*	*	*	*	*	*	*	*	*	*	*	*	*	*	*	*	*	*
=111	=111	=111	=111	=111	=111	=111	=111	=111	=111	=111	=111	=111	=111	=111	=111	=111	=111	=111	=111	=111	=111
*	*k[f#c#g#d#a#]	*k[f#c#g#d#a#]	*	*k[f#c#g#d#a#]	*	*	*	*k[f#c#g#d#a#]	*	*	*	*k[f#c#g#d#a#]	*	*	*k[f#c#g#d#a#]	*	*	*	*k[f#c#g#d#a#]	*	*
*	*^	*^	*	*	*	*	*	*	*	*	*	*	*	*	*	*	*	*	*	*	*
!	!LO:TX:t=P:problem=kolejność znaków F# C# G# D# A#	!	!LO:TX:t=P:problem=kolejność znaków f# cc# g# dd# a#	!	!LO:DY:rj	!	!	!	!	!	!	!	!	!	!	!	!	!	!	!	!LO:TX:t=P:problem=kolejność znaków F# c# G# d# A#	!	!
1ryy	2D#/	1r	2b/	2f#\	p	1ryy	.	.	.	1ryy	.	.	.	1ryy	.	.	1ryy	.	.	.	4.B\	E-	.
.	.	.	.	.	.	.	.	.	.	.	.	.	.	.	.	.	.	.	.	.	8B\	-go	.
.	4BB/	.	4f# 4d#/	2ryy	.	.	.	.	.	.	.	.	.	.	.	.	.	.	.	.	(4d#^\	de-	.
.	4E/	.	4g# 4c#/	.	.	.	.	.	.	.	.	.	.	.	.	.	.	.	.	.	8c#\)	.	.
.	.	.	.	.	.	.	.	.	.	.	.	.	.	.	.	.	.	.	.	.	8B\	-di	.
!!LO:LB:g=original
=112	=112	=112	=112	=112	=112	=112	=112	=112	=112	=112	=112	=112	=112	=112	=112	=112	=112	=112	=112	=112	=112	=112	=112
1ryy	1F#	1rFF	4f#/	2d#\	.	1ryy	.	.	.	1ryy	.	.	.	1ryy	.	.	1ryy	.	.	.	2B\	ti-	.
.	.	.	4b/	.	.	.	.	.	.	.	.	.	.	.	.	.	.	.	.	.	.	.	.
.	.	.	2a#/	4c#\	.	.	.	.	.	.	.	.	.	.	.	.	.	.	.	.	4A#/	-bi	.
.	.	.	.	4f#\	.	.	.	.	.	.	.	.	.	.	.	.	.	.	.	.	4r	.	.
=113	=113	=113	=113	=113	=113	=113	=113	=113	=113	=113	=113	=113	=113	=113	=113	=113	=113	=113	=113	=113	=113	=113	=113
1ryy	4G#/	1rFF	2b/	4d#\	.	1ryy	.	.	.	1ryy	.	.	.	1ryy	.	.	1ryy	.	.	.	2B/	sce-	.
.	.	.	.	.	<	.	.	.	.	.	.	.	.	.	.	.	.	.	.	.	.	.	.
.	4C#/	.	.	4e#X\	.	.	.	.	.	.	.	.	.	.	.	.	.	.	.	.	.	.	<
.	4F#/	.	4a#/	2f#\	.	.	.	.	.	.	.	.	.	.	.	.	.	.	.	.	4.A#/	-ptrum	.
.	4AA#/	.	4cc#/	.	.	.	.	.	.	.	.	.	.	.	.	.	.	.	.	.	.	.	.
.	.	.	.	.	[	.	.	.	.	.	.	.	.	.	.	.	.	.	.	.	8c#\	re-	[
=114	=114	=114	=114	=114	=114	=114	=114	=114	=114	=114	=114	=114	=114	=114	=114	=114	=114	=114	=114	=114	=114	=114	=114
1ryy	4.C#/	1r	2cc# 2g#/	4.e#X\	>	1ryy	.	.	.	1ryy	.	.	.	1ryy	.	.	1ryy	.	.	.	2c#\	-ga-	>
.	8D#/	.	.	8d#\	.	.	.	.	.	.	.	.	.	.	.	.	.	.	.	.	.	.	.
.	8E#X/	.	8g#/	8c#\	]	.	.	.	.	.	.	.	.	.	.	.	.	.	.	.	8G#/	-le	]
!	!	!	!	!	!	!	!	!	!	!	!	!	!	!	!	!	!	!	!	!	!	!	!LO:DY:a:rj
.	8r	.	8r	8ryy	.	.	.	.	.	.	.	.	.	.	.	.	.	.	.	.	8r	.	pp
!	!	!	!	!	!LO:DY:rj	!	!	!	!	!	!	!	!	!	!	!	!	!	!	!	!	!	!
.	8D#/	.	8b 8g# 8d#/	4ryy	pp	.	.	.	.	.	.	.	.	.	.	.	.	.	.	.	4B/	et	.
.	8r	.	8r	.	.	.	.	.	.	.	.	.	.	.	.	.	.	.	.	.	.	.	.
*	*v	*v	*	*	*	*	*	*	*	*	*	*	*	*	*	*	*	*	*	*	*	*	*
*	*	*v	*v	*	*	*	*	*	*	*	*	*	*	*	*	*	*	*	*	*	*	*
=115	=115	=115	=115	=115	=115	=115	=115	=115	=115	=115	=115	=115	=115	=115	=115	=115	=115	=115	=115	=115	=115
1ryy	1Dn;	1b-X 1a-X 1fn;	.	1ryy	.	.	.	1ryy	.	.	.	1ryy	.	.	1ryy	.	.	.	2B-X\	tu	.
.	.	.	.	.	.	.	.	.	.	.	.	.	.	.	.	.	.	.	4r;	.	.
.	.	.	.	.	.	.	.	.	.	.	.	.	.	.	.	.	.	.	4B-\	de-	.
=116	=116	=116	=116	=116	=116	=116	=116	=116	=116	=116	=116	=116	=116	=116	=116	=116	=116	=116	=116	=116	=116
*	*k[b-e-a-d-g-]	*k[b-e-a-d-g-]	*	*k[b-e-a-d-g-]	*	*	*	*k[b-e-a-d-g-]	*	*	*	*k[b-e-a-d-g-]	*	*	*k[b-e-a-d-g-]	*	*	*	*k[b-e-a-d-g-]	*	*
*	*^	*^	*	*	*	*	*	*	*	*	*	*	*	*	*	*	*	*	*	*	*
1ryy	2E-/	1r	2b-/	1g-	.	1ryy	.	.	.	1ryy	.	.	.	1ryy	.	.	1ryy	.	.	.	4.B-\	-di-	.
.	.	.	.	.	.	.	.	.	.	.	.	.	.	.	.	.	.	.	.	.	8B-\	-sti	.
.	4e-/	.	4cc/	.	.	.	.	.	.	.	.	.	.	.	.	.	.	.	.	.	8.c\	ca-	.
.	.	.	.	.	.	.	.	.	.	.	.	.	.	.	.	.	.	.	.	.	16c\	-pi-	.
.	4d-/	.	4dd-/	.	.	.	.	.	.	.	.	.	.	.	.	.	.	.	.	.	4d-\	-ti	.
!!LO:PB:g=original
=117	=117	=117	=117	=117	=117	=117	=117	=117	=117	=117	=117	=117	=117	=117	=117	=117	=117	=117	=117	=117	=117	=117	=117
1ryy	2c/	1rFF	2ee- 2g-/	2ryy	.	1ryy	.	.	.	1ryy	.	.	.	1ryy	.	.	1ryy	.	.	.	(2e-\	me-	.
.	2C/	.	4g-/	[2e-\	.	.	.	.	.	.	.	.	.	.	.	.	.	.	.	.	4G-/)	.	.
.	.	.	4a- 4f/	.	.	.	.	.	.	.	.	.	.	.	.	.	.	.	.	.	4A-/	-o	.
=118	=118	=118	=118	=118	=118	=118	=118	=118	=118	=118	=118	=118	=118	=118	=118	=118	=118	=118	=118	=118	=118	=118	=118
1ryy	2BB-/	1r	4b- 4g-/	4e-\]	.	1ryy	.	.	.	1ryy	.	.	.	1ryy	.	.	1ryy	.	.	.	8.B-/	spi-	.
.	.	.	.	.	.	.	.	.	.	.	.	.	.	.	.	.	.	.	.	.	16B-/	-ne-	.
.	.	.	8a-L 8f/	4ryy	.	.	.	.	.	.	.	.	.	.	.	.	.	.	.	.	8A-/	-am	.
.	.	.	8g-J 8e-/	.	.	.	.	.	.	.	.	.	.	.	.	.	.	.	.	.	8G-/	co-	.
.	2B-/	.	2f/	4.e-\	.	.	.	.	.	.	.	.	.	.	.	.	.	.	.	.	2F/	-ro-	.
.	.	.	.	8dn\	.	.	.	.	.	.	.	.	.	.	.	.	.	.	.	.	.	.	.
*	*v	*v	*	*	*	*	*	*	*	*	*	*	*	*	*	*	*	*	*	*	*	*	*
=119	=119	=119	=119	=119	=119	=119	=119	=119	=119	=119	=119	=119	=119	=119	=119	=119	=119	=119	=119	=119	=119	=119
1ryy	(4.E-/	(4.e-/	4.e-\	.	1ryy	.	.	.	1ryy	.	.	.	1ryy	.	.	1ryy	.	.	.	4E-/	-nam	.
.	.	.	.	.	.	.	.	.	.	.	.	.	.	.	.	.	.	.	.	4r	.	.
.	8G-/	8g-/	8ryy	.	.	.	.	.	.	.	.	.	.	.	.	.	.	.	.	.	.	.
.	4B-/)	4b-\)	2ryy	.	.	.	.	.	.	.	.	.	.	.	.	.	.	.	.	2r	.	.
!	!	!	!	!LO:DY:rj	!	!	!	!	!	!	!	!	!	!	!	!	!	!	!	!	!	!
.	4G#X 4GG#X/	4b#X 4g#X 4f#X 4d#X^/	.	f	.	.	.	.	.	.	.	.	.	.	.	.	.	.	.	.	.	.
*	*	*v	*v	*	*	*	*	*	*	*	*	*	*	*	*	*	*	*	*	*	*	*
=120	=120	=120	=120	=120	=120	=120	=120	=120	=120	=120	=120	=120	=120	=120	=120	=120	=120	=120	=120	=120	=120
*	*k[f#c#g#d#]	*k[f#c#g#d#]	*	*k[f#c#g#d#]	*	*	*	*k[f#c#g#d#]	*	*	*	*k[f#c#g#d#]	*	*	*k[f#c#g#d#]	*	*	*	*k[f#c#g#d#]	*	*
*	*	*^	*	*	*	*	*	*	*	*	*	*	*	*	*	*	*	*	*	*	*
!	!	!LO:TX:t=P:problem=kolejność znaków f# cc# g# dd#	!	!LO:DY:rj	!	!	!	!	!	!	!	!	!	!	!	!	!	!	!	!LO:TX:t=P:problem=kolejność znaków F# c# G# d#	!	!LO:DY:a:rj
1ryy	[2c# 2G# 2C#\	2cc# 2g# 2e/	2ryy	mf	1ryy	.	.	.	1ryy	.	.	.	1ryy	.	.	1ryy	.	.	.	4.c#\	E-	f
.	.	.	.	.	.	.	.	.	.	.	.	.	.	.	.	.	.	.	.	8c#\	-go	.
.	4c#] 4F#\	4.a#X/	2f#\	.	.	.	.	.	.	.	.	.	.	.	.	.	.	.	.	4d#\	te	.
.	4G#\	.	.	.	.	.	.	.	.	.	.	.	.	.	.	.	.	.	.	8c#\	ex-	.
.	.	8b#X/	.	.	.	.	.	.	.	.	.	.	.	.	.	.	.	.	.	8B#X\	-al-	.
!!LO:LB:g=original
=121	=121	=121	=121	=121	=121	=121	=121	=121	=121	=121	=121	=121	=121	=121	=121	=121	=121	=121	=121	=121	=121	=121
1ryy	4C#/	2cc#/	4e#X\	.	1ryy	.	.	.	1ryy	.	.	.	1ryy	.	.	1ryy	.	.	.	2c#\	-ta-	.
.	8D#/L	.	8f#\L	.	.	.	.	.	.	.	.	.	.	.	.	.	.	.	.	.	.	.
.	8E#X/J	.	8g#\J	.	.	.	.	.	.	.	.	.	.	.	.	.	.	.	.	.	.	.
.	4F#\	2ryy	4an\	.	.	.	.	.	.	.	.	.	.	.	.	.	.	.	.	8A/	-vi	.
.	.	.	.	.	.	.	.	.	.	.	.	.	.	.	.	.	.	.	.	8r	.	.
.	4G#\	.	8e#\L	.	.	.	.	.	.	.	.	.	.	.	.	.	.	.	.	4c#/	in	.
.	.	.	8g#\J	.	.	.	.	.	.	.	.	.	.	.	.	.	.	.	.	.	.	.
=122	=122	=122	=122	=122	=122	=122	=122	=122	=122	=122	=122	=122	=122	=122	=122	=122	=122	=122	=122	=122	=122	=122
*	*^	*	*	*	*	*	*	*	*	*	*	*	*	*	*	*	*	*	*	*	*	*
1ryy	8A/L	1F#	(2cc#/	2f#\	.	1ryy	.	.	.	1ryy	.	.	.	1ryy	.	.	1ryy	.	.	.	4.c#^\	ma-	.
.	8F#/	.	.	.	.	.	.	.	.	.	.	.	.	.	.	.	.	.	.	.	.	.	.
.	8C#/	.	.	.	.	.	.	.	.	.	.	.	.	.	.	.	.	.	.	.	.	.	.
.	8AAn/J	.	.	.	.	.	.	.	.	.	.	.	.	.	.	.	.	.	.	.	8c#\	-gna[[m]]	.
.	8BBn/	.	8dd#/L)	4an 4f#\	.	.	.	.	.	.	.	.	.	.	.	.	.	.	.	.	4d#^\	ma-	.
.	8r	.	8b/	.	.	.	.	.	.	.	.	.	.	.	.	.	.	.	.	.	.	.	.
.	4B 4BB/	.	8an/	4ryy	.	.	.	.	.	.	.	.	.	.	.	.	.	.	.	.	8c#\	-gna[[m]]	.
.	.	.	8f#/J	.	.	.	.	.	.	.	.	.	.	.	.	.	.	.	.	.	8d#\	vir-	.
*	*	*	*v	*v	*	*	*	*	*	*	*	*	*	*	*	*	*	*	*	*	*	*	*
=123	=123	=123	=123	=123	=123	=123	=123	=123	=123	=123	=123	=123	=123	=123	=123	=123	=123	=123	=123	=123	=123	=123
!	!LO:TX:b:t=ped.	!	!	!	!	!	!	!	!	!	!	!	!	!	!	!	!	!	!	!	!	!LO:DY:a:rj
1ryy	1E [1EE	4BB\	4.ee 4.b 4.g# 4.e/	.	1ryy	.	.	.	1ryy	.	.	.	1ryy	.	.	1ryy	.	.	.	1e	-tu-	ff
.	.	4rAA	.	.	.	.	.	.	.	.	.	.	.	.	.	.	.	.	.	.	.	.
.	.	.	8cc# 8an 8e/	.	.	.	.	.	.	.	.	.	.	.	.	.	.	.	.	.	.	.
.	.	2rE	8bL 8e 8d#/	.	.	.	.	.	.	.	.	.	.	.	.	.	.	.	.	.	.	.
.	.	.	8a 8e 8c#/	.	.	.	.	.	.	.	.	.	.	.	.	.	.	.	.	.	.	.
.	.	.	8g# 8e 8B/	.	.	.	.	.	.	.	.	.	.	.	.	.	.	.	.	.	.	.
.	.	.	8f#J 8B< 8A</	.	.	.	.	.	.	.	.	.	.	.	.	.	.	.	.	.	.	.
=124	=124	=124	=124	=124	=124	=124	=124	=124	=124	=124	=124	=124	=124	=124	=124	=124	=124	=124	=124	=124	=124	=124
1ryy	8EE/L]	8EE\	8eL 8B< 8G#</	.	1ryy	.	.	.	1ryy	.	.	.	1ryy	.	.	1ryy	.	.	.	4E/	-te	.
.	8BB/	8ryy	8B</	.	.	.	.	.	.	.	.	.	.	.	.	.	.	.	.	.	.	.
.	8E/	4ryy	8e/	>	.	.	.	.	.	.	.	.	.	.	.	.	.	.	.	4r	.	.
.	8G#/J	.	8g#/J	.	.	.	.	.	.	.	.	.	.	.	.	.	.	.	.	.	.	.
.	8B/L	2ryy	8b/L	.	.	.	.	.	.	.	.	.	.	.	.	.	.	.	.	4r	.	.
.	8A/	.	8a/	.	.	.	.	.	.	.	.	.	.	.	.	.	.	.	.	.	.	.
.	8G#/	.	8g#/	.	.	.	.	.	.	.	.	.	.	.	.	.	.	.	.	8r	.	.
!	!	!	!	!	!	!	!	!	!	!	!	!	!	!	!	!	!	!	!	!	!	!LO:DY:a:rj
.	8F#|/J	.	8ddnJ 8b 8g#|/	] pp	.	.	.	.	.	.	.	.	.	.	.	.	.	.	.	8dn\	et	pp
*	*v	*v	*	*	*	*	*	*	*	*	*	*	*	*	*	*	*	*	*	*	*	*
=125	=125	=125	=125	=125	=125	=125	=125	=125	=125	=125	=125	=125	=125	=125	=125	=125	=125	=125	=125	=125	=125
1ryy	1E#X;	1cc# 1b 1g#;	.	1ryy	.	.	.	1ryy	.	.	.	1ryy	.	.	1ryy	.	.	.	2c#\	tu ....	.
.	.	.	.	.	.	.	.	.	.	.	.	.	.	.	.	.	.	.	2r;	.	.
!!LO:LB:g=original
=126||	=126||	=126||	=126||	=126||	=126||	=126||	=126||	=126||	=126||	=126||	=126||	=126||	=126||	=126||	=126||	=126||	=126||	=126||	=126||	=126||	=126||
*k[f#c#g#]	*k[f#c#g#]	*k[f#c#g#]	*	*k[f#c#g#]	*	*	*	*k[f#c#g#]	*	*	*	*k[f#c#g#]	*	*	*k[f#c#g#]	*	*	*	*k[f#c#g#]	*	*
*tremolo	*	*	*	*	*	*	*	*	*	*	*	*	*	*	*	*	*	*	*	*	*
!	!	!LO:TX:a:Bi:t=un poco piu mosso.	!	!	!	!	!	!LO:TX:t=P:problem=kolejność znaków F# c# G#	!	!	!	!LO:TX:t=P:problem=kolejność znaków f# cc# g#	!	!	!LO:TX:t=P:problem=kolejność znaków f# cc# g#	!	!	!	!	!	!
!	!	!	!	!	!	!	!	!LO:TX:t=Col Sopr.	!	!	!	!LO:TX:t=Col Sopr.	!	!	!	!	!	!	!LO:TX:a:Bi:t=un poco piu mosso.	!	!
32FF#/LLL	1F# 1C# 1AA [>1FF#	1f# 1c# 1A	.	4r	.	.	.	4ryy	.	.	.	4ryy	.	.	4r	.	.	.	1ryy	.	.
32FF#/	.	.	.	.	.	.	.	.	.	.	.	.	.	.	.	.	.	.	.	.	.
32FF#/	.	.	.	.	.	.	.	.	.	.	.	.	.	.	.	.	.	.	.	.	.
32FF#/	.	.	.	.	.	.	.	.	.	.	.	.	.	.	.	.	.	.	.	.	.
32FF#/	.	.	.	.	.	.	.	.	.	.	.	.	.	.	.	.	.	.	.	.	.
32FF#/	.	.	.	.	.	.	.	.	.	.	.	.	.	.	.	.	.	.	.	.	.
32FF#/	.	.	.	.	.	.	.	.	.	.	.	.	.	.	.	.	.	.	.	.	.
32FF#/	.	.	.	.	.	.	.	.	.	.	.	.	.	.	.	.	.	.	.	.	.
!	!	!	!	!	!	!	!LO:DY:a:t=p.	!	!	!	!LO:DY:a:t=p.	!	!	!LO:DY:a:t=p.	!	!	!	!LO:DY:a:t=p.	!	!	!
32FF#/	.	.	.	4F#\	tu	.	p	4F#/yy	tu	.	py	4f#/yy	tu	py	4f#/	tu	.	p	.	.	.
32FF#/	.	.	.	.	.	.	.	.	.	.	.	.	.	.	.	.	.	.	.	.	.
32FF#/	.	.	.	.	.	.	.	.	.	.	.	.	.	.	.	.	.	.	.	.	.
32FF#/	.	.	.	.	.	.	.	.	.	.	.	.	.	.	.	.	.	.	.	.	.
32FF#/	.	.	.	.	.	.	.	.	.	.	.	.	.	.	.	.	.	.	.	.	.
32FF#/	.	.	.	.	.	.	.	.	.	.	.	.	.	.	.	.	.	.	.	.	.
32FF#/	.	.	.	.	.	.	.	.	.	.	.	.	.	.	.	.	.	.	.	.	.
32FF#/	.	.	.	.	.	.	.	.	.	.	.	.	.	.	.	.	.	.	.	.	.
*	*	*	*	*	*ij	*	*	*	*	*	*	*	*	*	*	*	*	*	*	*	*
32FF#/	.	.	.	4F#\	su-	.	.	4F#/yy	su-	.	.	4f#/yy	su-	.	4f#/	su-	.	.	.	.	.
32FF#/	.	.	.	.	.	.	.	.	.	.	.	.	.	.	.	.	.	.	.	.	.
32FF#/	.	.	.	.	.	.	.	.	.	.	.	.	.	.	.	.	.	.	.	.	.
32FF#/	.	.	.	.	.	.	.	.	.	.	.	.	.	.	.	.	.	.	.	.	.
32FF#/	.	.	.	.	.	.	.	.	.	.	.	.	.	.	.	.	.	.	.	.	.
32FF#/	.	.	.	.	.	.	.	.	.	.	.	.	.	.	.	.	.	.	.	.	.
32FF#/	.	.	.	.	.	.	.	.	.	.	.	.	.	.	.	.	.	.	.	.	.
32FF#/	.	.	.	.	.	.	.	.	.	.	.	.	.	.	.	.	.	.	.	.	.
32FF#/	.	.	.	4F#\	-spen-	.	.	4F#/yy	-spen-	.	.	4f#/yy	-spen-	.	4f#/	-spen-	.	.	.	.	.
32FF#/	.	.	.	.	.	.	.	.	.	.	.	.	.	.	.	.	.	.	.	.	.
32FF#/	.	.	.	.	.	.	.	.	.	.	.	.	.	.	.	.	.	.	.	.	.
32FF#/	.	.	.	.	.	.	.	.	.	.	.	.	.	.	.	.	.	.	.	.	.
32FF#/	.	.	.	.	.	.	.	.	.	.	.	.	.	.	.	.	.	.	.	.	.
32FF#/	.	.	.	.	.	.	.	.	.	.	.	.	.	.	.	.	.	.	.	.	.
32FF#/	.	.	.	.	.	.	.	.	.	.	.	.	.	.	.	.	.	.	.	.	.
32FF#/JJJ	.	.	.	.	.	.	.	.	.	.	.	.	.	.	.	.	.	.	.	.	.
=127	=127	=127	=127	=127	=127	=127	=127	=127	=127	=127	=127	=127	=127	=127	=127	=127	=127	=127	=127	=127	=127
*	*^	*^	*	*	*	*	*	*	*	*	*	*	*	*	*	*	*	*	*	*	*
32FF#^/LLL	2Gn/	1D 1BB 1FF#_>	2gn/	1d 1B	.	(2Gn^\	-di-	.	.	(y2Gn^/yy	-di-	.	.	(y2gn^/yy	-di-	.	(2gn^/	-di-	.	.	1ryy	.	.
32FF#/	.	.	.	.	.	.	.	.	.	.	.	.	.	.	.	.	.	.	.	.	.	.	.
32FF#/	.	.	.	.	.	.	.	.	.	.	.	.	.	.	.	.	.	.	.	.	.	.	.
32FF#/	.	.	.	.	.	.	.	.	.	.	.	.	.	.	.	.	.	.	.	.	.	.	.
32FF#/	.	.	.	.	.	.	.	.	.	.	.	.	.	.	.	.	.	.	.	.	.	.	.
32FF#/	.	.	.	.	.	.	.	.	.	.	.	.	.	.	.	.	.	.	.	.	.	.	.
32FF#/	.	.	.	.	.	.	.	.	.	.	.	.	.	.	.	.	.	.	.	.	.	.	.
32FF#/	.	.	.	.	.	.	.	.	.	.	.	.	.	.	.	.	.	.	.	.	.	.	.
32FF#/	.	.	.	.	.	.	.	.	.	.	.	.	.	.	.	.	.	.	.	.	.	.	.
32FF#/	.	.	.	.	.	.	.	.	.	.	.	.	.	.	.	.	.	.	.	.	.	.	.
32FF#/	.	.	.	.	.	.	.	.	.	.	.	.	.	.	.	.	.	.	.	.	.	.	.
32FF#/	.	.	.	.	.	.	.	.	.	.	.	.	.	.	.	.	.	.	.	.	.	.	.
32FF#/	.	.	.	.	.	.	.	.	.	.	.	.	.	.	.	.	.	.	.	.	.	.	.
32FF#/	.	.	.	.	.	.	.	.	.	.	.	.	.	.	.	.	.	.	.	.	.	.	.
32FF#/	.	.	.	.	.	.	.	.	.	.	.	.	.	.	.	.	.	.	.	.	.	.	.
32FF#/	.	.	.	.	.	.	.	.	.	.	.	.	.	.	.	.	.	.	.	.	.	.	.
!	!	!	!	!	!	!LO:TX:t=cres-cen-do.:problem=dynamics with extention lines	!	!	!LO:HP:t=cres-cen-do.:ext=cd	!yLO:TX:t=cres-cen-do.:problem=dynamics with extention lines	!	!	!LO:HP:t=cres-cen-do.:ext=cd	!yLO:TX:t=cres-cen-do.:problem=dynamics with extention lines	!	!LO:HP:t=cres-cen-do.:ext=cd	!LO:TX:t=cres-cen-do.:problem=dynamics with extention lines	!	!	!LO:HP:t=cres-cen-do.:ext=cd	!	!	!
32FF#/	4F#/	.	4f#/	.	.	4F#\)	.	.	<	4F#/)yy	.	.	<	4f#/)yy	.	<	4f#/)	.	.	<	.	.	.
32FF#/	.	.	.	.	.	.	.	.	.	.	.	.	.	.	.	.	.	.	.	.	.	.	.
32FF#/	.	.	.	.	.	.	.	.	.	.	.	.	.	.	.	.	.	.	.	.	.	.	.
32FF#/	.	.	.	.	.	.	.	.	.	.	.	.	.	.	.	.	.	.	.	.	.	.	.
32FF#/	.	.	.	.	.	.	.	.	.	.	.	.	.	.	.	.	.	.	.	.	.	.	.
32FF#/	.	.	.	.	.	.	.	.	.	.	.	.	.	.	.	.	.	.	.	.	.	.	.
32FF#/	.	.	.	.	.	.	.	.	.	.	.	.	.	.	.	.	.	.	.	.	.	.	.
32FF#/	.	.	.	.	.	.	.	.	.	.	.	.	.	.	.	.	.	.	.	.	.	.	.
32FF#/	4E#X/	.	4e#X/	.	.	4E#X\	-sti	.	.	4E#X/yy	-sti	.	.	4e#X/yy	-sti	.	4e#X/	-sti	.	.	.	.	.
32FF#/	.	.	.	.	.	.	.	.	.	.	.	.	.	.	.	.	.	.	.	.	.	.	.
32FF#/	.	.	.	.	.	.	.	.	.	.	.	.	.	.	.	.	.	.	.	.	.	.	.
32FF#/	.	.	.	.	.	.	.	.	.	.	.	.	.	.	.	.	.	.	.	.	.	.	.
32FF#/	.	.	.	.	.	.	.	.	.	.	.	.	.	.	.	.	.	.	.	.	.	.	.
32FF#/	.	.	.	.	.	.	.	.	.	.	.	.	.	.	.	.	.	.	.	.	.	.	.
32FF#/	.	.	.	.	.	.	.	.	.	.	.	.	.	.	.	.	.	.	.	.	.	.	.
32FF#/JJJ	.	.	.	.	.	.	.	.	.	.	.	.	.	.	.	.	.	.	.	.	.	.	.
*	*v	*v	*	*	*	*	*	*	*	*	*	*	*	*	*	*	*	*	*	*	*	*	*
*	*	*v	*v	*	*	*	*	*	*	*	*	*	*	*	*	*	*	*	*	*	*	*
=128	=128	=128	=128	=128	=128	=128	=128	=128	=128	=128	=128	=128	=128	=128	=128	=128	=128	=128	=128	=128	=128
32FF#^/LLL	1F# 1C# 1AA 1FF#_>	1f# 1c# 1A	.	4F#\	in	.	.	4F#/yy	in	.	.	4f#/yy	in	.	4f#/	in	.	.	1ryy	.	.
32FF#/	.	.	.	.	.	.	.	.	.	.	.	.	.	.	.	.	.	.	.	.	.
32FF#/	.	.	.	.	.	.	.	.	.	.	.	.	.	.	.	.	.	.	.	.	.
32FF#/	.	.	.	.	.	.	.	.	.	.	.	.	.	.	.	.	.	.	.	.	.
32FF#/	.	.	.	.	.	.	.	.	.	.	.	.	.	.	.	.	.	.	.	.	.
32FF#/	.	.	.	.	.	.	.	.	.	.	.	.	.	.	.	.	.	.	.	.	.
32FF#/	.	.	.	.	.	.	.	.	.	.	.	.	.	.	.	.	.	.	.	.	.
32FF#/	.	.	.	.	.	.	.	.	.	.	.	.	.	.	.	.	.	.	.	.	.
32FF#/	.	.	.	4F#\	pa-	.	.	4F#/yy	pa-	.	.	4f#/yy	pa-	.	4f#/	pa-	.	.	.	.	.
32FF#/	.	.	.	.	.	.	.	.	.	.	.	.	.	.	.	.	.	.	.	.	.
32FF#/	.	.	.	.	.	.	.	.	.	.	.	.	.	.	.	.	.	.	.	.	.
32FF#/	.	.	.	.	.	.	.	.	.	.	.	.	.	.	.	.	.	.	.	.	.
32FF#/	.	.	.	.	.	.	.	.	.	.	.	.	.	.	.	.	.	.	.	.	.
32FF#/	.	.	.	.	.	.	.	.	.	.	.	.	.	.	.	.	.	.	.	.	.
32FF#/	.	.	.	.	.	.	.	.	.	.	.	.	.	.	.	.	.	.	.	.	.
32FF#/	.	.	.	.	.	.	.	.	.	.	.	.	.	.	.	.	.	.	.	.	.
32FF#/	.	.	.	4F#\	-ti-	.	.	4F#/yy	-ti-	.	.	4f#/yy	-ti-	.	4f#/	-ti-	.	.	.	.	.
32FF#/	.	.	.	.	.	.	.	.	.	.	.	.	.	.	.	.	.	.	.	.	.
32FF#/	.	.	.	.	.	.	.	.	.	.	.	.	.	.	.	.	.	.	.	.	.
32FF#/	.	.	.	.	.	.	.	.	.	.	.	.	.	.	.	.	.	.	.	.	.
32FF#/	.	.	.	.	.	.	.	.	.	.	.	.	.	.	.	.	.	.	.	.	.
32FF#/	.	.	.	.	.	.	.	.	.	.	.	.	.	.	.	.	.	.	.	.	.
32FF#/	.	.	.	.	.	.	.	.	.	.	.	.	.	.	.	.	.	.	.	.	.
32FF#/	.	.	.	.	.	.	.	.	.	.	.	.	.	.	.	.	.	.	.	.	.
32FF#/	.	.	.	8F#\	-bu-	.	.	8F#/yy	-bu-	.	.	8f#/yy	-bu-	.	8f#/	-bu-	.	.	.	.	.
32FF#/	.	.	.	.	.	.	.	.	.	.	.	.	.	.	.	.	.	.	.	.	.
32FF#/	.	.	.	.	.	.	.	.	.	.	.	.	.	.	.	.	.	.	.	.	.
32FF#/	.	.	.	.	.	.	.	.	.	.	.	.	.	.	.	.	.	.	.	.	.
32FF#/	.	.	.	8A\	-lo	.	.	8A/yy	-lo	.	.	8a/yy	-lo	.	8a/	-lo	.	.	.	.	.
32FF#/	.	.	.	.	.	.	.	.	.	.	.	.	.	.	.	.	.	.	.	.	.
32FF#/	.	.	.	.	.	.	.	.	.	.	.	.	.	.	.	.	.	.	.	.	.
32FF#/JJJ	.	.	.	.	.	.	.	.	.	.	.	.	.	.	.	.	.	.	.	.	.
=129	=129	=129	=129	=129	=129	=129	=129	=129	=129	=129	=129	=129	=129	=129	=129	=129	=129	=129	=129	=129	=129
*	*^	*^	*	*	*	*	*	*	*	*	*	*	*	*	*	*	*	*	*	*	*
32FF#^/LLL	2A/	1E 1C# 1FF#_>	2a/	1e 1c#	.	(2A^\	cru-	.	.	(y2A^/yy	cru-	.	.	(y2a^/yy	cru-	.	(2a^/	cru-	.	.	1ryy	.	.
32FF#/	.	.	.	.	.	.	.	.	.	.	.	.	.	.	.	.	.	.	.	.	.	.	.
32FF#/	.	.	.	.	.	.	.	.	.	.	.	.	.	.	.	.	.	.	.	.	.	.	.
32FF#/	.	.	.	.	.	.	.	.	.	.	.	.	.	.	.	.	.	.	.	.	.	.	.
32FF#/	.	.	.	.	.	.	.	.	.	.	.	.	.	.	.	.	.	.	.	.	.	.	.
32FF#/	.	.	.	.	.	.	.	.	.	.	.	.	.	.	.	.	.	.	.	.	.	.	.
32FF#/	.	.	.	.	.	.	.	.	.	.	.	.	.	.	.	.	.	.	.	.	.	.	.
32FF#/	.	.	.	.	.	.	.	.	.	.	.	.	.	.	.	.	.	.	.	.	.	.	.
32FF#/	.	.	.	.	.	.	.	.	.	.	.	.	.	.	.	.	.	.	.	.	.	.	.
32FF#/	.	.	.	.	.	.	.	.	.	.	.	.	.	.	.	.	.	.	.	.	.	.	.
32FF#/	.	.	.	.	.	.	.	.	.	.	.	.	.	.	.	.	.	.	.	.	.	.	.
32FF#/	.	.	.	.	.	.	.	.	.	.	.	.	.	.	.	.	.	.	.	.	.	.	.
32FF#/	.	.	.	.	.	.	.	.	.	.	.	.	.	.	.	.	.	.	.	.	.	.	.
32FF#/	.	.	.	.	.	.	.	.	.	.	.	.	.	.	.	.	.	.	.	.	.	.	.
32FF#/	.	.	.	.	.	.	.	.	.	.	.	.	.	.	.	.	.	.	.	.	.	.	.
32FF#/	.	.	.	.	.	.	.	.	.	.	.	.	.	.	.	.	.	.	.	.	.	.	.
32FF#/	4G#/	.	4g#/	.	.	4G#\)	.	.	.	4G#/)yy	.	.	.	4g#/)yy	.	.	4g#/)	.	.	.	.	.	.
32FF#/	.	.	.	.	.	.	.	.	.	.	.	.	.	.	.	.	.	.	.	.	.	.	.
32FF#/	.	.	.	.	.	.	.	.	.	.	.	.	.	.	.	.	.	.	.	.	.	.	.
32FF#/	.	.	.	.	.	.	.	.	.	.	.	.	.	.	.	.	.	.	.	.	.	.	.
32FF#/	.	.	.	.	.	.	.	.	.	.	.	.	.	.	.	.	.	.	.	.	.	.	.
32FF#/	.	.	.	.	.	.	.	.	.	.	.	.	.	.	.	.	.	.	.	.	.	.	.
32FF#/	.	.	.	.	.	.	.	.	.	.	.	.	.	.	.	.	.	.	.	.	.	.	.
32FF#/	.	.	.	.	.	.	.	.	.	.	.	.	.	.	.	.	.	.	.	.	.	.	.
32FF#/	4F##X/	.	4f##X/	.	.	4F##X\	-cis,	.	.	4F##X/yy	-cis,	.	.	4f##X/yy	-cis,	.	4f##X/	-cis,	.	.	.	.	.
32FF#/	.	.	.	.	.	.	.	.	.	.	.	.	.	.	.	.	.	.	.	.	.	.	.
32FF#/	.	.	.	.	.	.	.	.	.	.	.	.	.	.	.	.	.	.	.	.	.	.	.
32FF#/	.	.	.	.	.	.	.	.	.	.	.	.	.	.	.	.	.	.	.	.	.	.	.
32FF#/	.	.	.	.	.	.	.	.	.	.	.	.	.	.	.	.	.	.	.	.	.	.	.
32FF#/	.	.	.	.	.	.	.	.	.	.	.	.	.	.	.	.	.	.	.	.	.	.	.
32FF#/	.	.	.	.	.	.	.	.	.	.	.	.	.	.	.	.	.	.	.	.	.	.	.
32FF#/JJJ	.	.	.	.	.	.	.	.	.	.	.	.	.	.	.	.	.	.	.	.	.	.	.
*	*v	*v	*	*	*	*	*	*	*	*	*	*	*	*	*	*	*	*	*	*	*	*	*
*	*	*v	*v	*	*	*	*	*	*	*	*	*	*	*	*	*	*	*	*	*	*	*
=130	=130	=130	=130	=130	=130	=130	=130	=130	=130	=130	=130	=130	=130	=130	=130	=130	=130	=130	=130	=130	=130
32FF#^/LLL	1G# 1D#y 1BB#X 1FF#_>	1g# 1d#X 1B#X	.	4G#^\	tu!	.	.	4G#^/yy	tu!	.	.	4g#^/yy	tu!	.	4g#^/	tu!	.	.	1ryy	.	.
32FF#/	.	.	.	.	.	.	.	.	.	.	.	.	.	.	.	.	.	.	.	.	.
32FF#/	.	.	.	.	.	.	.	.	.	.	.	.	.	.	.	.	.	.	.	.	.
32FF#/	.	.	.	.	.	.	.	.	.	.	.	.	.	.	.	.	.	.	.	.	.
32FF#/	.	.	.	.	.	.	.	.	.	.	.	.	.	.	.	.	.	.	.	.	.
32FF#/	.	.	.	.	.	.	.	.	.	.	.	.	.	.	.	.	.	.	.	.	.
32FF#/	.	.	.	.	.	.	.	.	.	.	.	.	.	.	.	.	.	.	.	.	.
32FF#/	.	.	.	.	.	.	.	.	.	.	.	.	.	.	.	.	.	.	.	.	.
32FF#/	.	.	.	8r	.	.	.	8ryy	.	.	.	8ryy	.	.	8r	.	.	.	.	.	.
32FF#/	.	.	.	.	.	.	.	.	.	.	.	.	.	.	.	.	.	.	.	.	.
32FF#/	.	.	.	.	.	.	.	.	.	.	.	.	.	.	.	.	.	.	.	.	.
32FF#/	.	.	.	.	.	.	.	.	.	.	.	.	.	.	.	.	.	.	.	.	.
32FF#/	.	.	.	8G#\	tu	.	.	8G#/yy	tu	.	.	8g#/yy	tu	.	8g#/	tu	.	.	.	.	.
32FF#/	.	.	.	.	.	.	.	.	.	.	.	.	.	.	.	.	.	.	.	.	.
32FF#/	.	.	.	.	.	.	.	.	.	.	.	.	.	.	.	.	.	.	.	.	.
32FF#/	.	.	.	.	.	.	.	.	.	.	.	.	.	.	.	.	.	.	.	.	.
32FF#/	.	.	.	4G#\	sus-	.	.	4G#/yy	sus-	.	.	4g#/yy	sus-	.	4g#/	sus-	.	.	.	.	.
32FF#/	.	.	.	.	.	.	.	.	.	.	.	.	.	.	.	.	.	.	.	.	.
32FF#/	.	.	.	.	.	.	.	.	.	.	.	.	.	.	.	.	.	.	.	.	.
32FF#/	.	.	.	.	.	.	.	.	.	.	.	.	.	.	.	.	.	.	.	.	.
32FF#/	.	.	.	.	.	.	.	.	.	.	.	.	.	.	.	.	.	.	.	.	.
32FF#/	.	.	.	.	.	.	.	.	.	.	.	.	.	.	.	.	.	.	.	.	.
32FF#/	.	.	.	.	.	.	.	.	.	.	.	.	.	.	.	.	.	.	.	.	.
32FF#/	.	.	.	.	.	.	.	.	.	.	.	.	.	.	.	.	.	.	.	.	.
32FF#/	.	.	.	4G#\	-pen-	.	.	4G#/yy	-pen-	.	.	4g#/yy	-pen-	.	4g#/	-pen-	.	.	.	.	.
32FF#/	.	.	.	.	.	.	.	.	.	.	.	.	.	.	.	.	.	.	.	.	.
32FF#/	.	.	.	.	.	.	.	.	.	.	.	.	.	.	.	.	.	.	.	.	.
32FF#/	.	.	.	.	.	.	.	.	.	.	.	.	.	.	.	.	.	.	.	.	.
32FF#/	.	.	.	.	.	.	.	.	.	.	.	.	.	.	.	.	.	.	.	.	.
32FF#/	.	.	.	.	.	.	.	.	.	.	.	.	.	.	.	.	.	.	.	.	.
32FF#/	.	.	.	.	.	.	.	.	.	.	.	.	.	.	.	.	.	.	.	.	.
32FF#/JJJ	.	.	.	.	.	.	.	.	.	.	.	.	.	.	.	.	.	.	.	.	.
=131	=131	=131	=131	=131	=131	=131	=131	=131	=131	=131	=131	=131	=131	=131	=131	=131	=131	=131	=131	=131	=131
*	*^	*^	*	*	*	*	*	*	*	*	*	*	*	*	*	*	*	*	*	*	*
32FF#^/LLL	2B/	[>1F# 1Dn 1FF#_>	(2b/	1f# 1dn 1Bn	.	2B^\	-di-	.	.	(y2B^/yy	-di-	.	.	(y2b^/yy	-di-	.	(2b^/	-di-	.	.	1ryy	.	.
32FF#/	.	.	.	.	.	.	.	.	.	.	.	.	.	.	.	.	.	.	.	.	.	.	.
32FF#/	.	.	.	.	.	.	.	.	.	.	.	.	.	.	.	.	.	.	.	.	.	.	.
32FF#/	.	.	.	.	.	.	.	.	.	.	.	.	.	.	.	.	.	.	.	.	.	.	.
32FF#/	.	.	.	.	.	.	.	.	.	.	.	.	.	.	.	.	.	.	.	.	.	.	.
32FF#/	.	.	.	.	.	.	.	.	.	.	.	.	.	.	.	.	.	.	.	.	.	.	.
32FF#/	.	.	.	.	.	.	.	.	.	.	.	.	.	.	.	.	.	.	.	.	.	.	.
32FF#/	.	.	.	.	.	.	.	.	.	.	.	.	.	.	.	.	.	.	.	.	.	.	.
32FF#/	.	.	.	.	.	.	.	.	.	.	.	.	.	.	.	.	.	.	.	.	.	.	.
32FF#/	.	.	.	.	.	.	.	.	.	.	.	.	.	.	.	.	.	.	.	.	.	.	.
32FF#/	.	.	.	.	.	.	.	.	.	.	.	.	.	.	.	.	.	.	.	.	.	.	.
32FF#/	.	.	.	.	.	.	.	.	.	.	.	.	.	.	.	.	.	.	.	.	.	.	.
32FF#/	.	.	.	.	.	.	.	.	.	.	.	.	.	.	.	.	.	.	.	.	.	.	.
32FF#/	.	.	.	.	.	.	.	.	.	.	.	.	.	.	.	.	.	.	.	.	.	.	.
32FF#/	.	.	.	.	.	.	.	.	.	.	.	.	.	.	.	.	.	.	.	.	.	.	.
32FF#/	.	.	.	.	.	.	.	.	.	.	.	.	.	.	.	.	.	.	.	.	.	.	.
32FF#/	4A/	.	4a/	.	.	4A\	.	.	.	4A/)yy	.	.	.	4a/)yy	.	.	4a/)	.	.	.	.	.	.
32FF#/	.	.	.	.	.	.	.	.	.	.	.	.	.	.	.	.	.	.	.	.	.	.	.
32FF#/	.	.	.	.	.	.	.	.	.	.	.	.	.	.	.	.	.	.	.	.	.	.	.
32FF#/	.	.	.	.	.	.	.	.	.	.	.	.	.	.	.	.	.	.	.	.	.	.	.
32FF#/	.	.	.	.	.	.	.	.	.	.	.	.	.	.	.	.	.	.	.	.	.	.	.
32FF#/	.	.	.	.	.	.	.	.	.	.	.	.	.	.	.	.	.	.	.	.	.	.	.
32FF#/	.	.	.	.	.	.	.	.	.	.	.	.	.	.	.	.	.	.	.	.	.	.	.
32FF#/	.	.	.	.	.	.	.	.	.	.	.	.	.	.	.	.	.	.	.	.	.	.	.
32FF#/	4G#/	.	4g#/)	.	.	4G#\	-sti	.	[	4G#/yy	-sti	.	[	4g#/yy	-sti	[	4g#/	-sti	.	[	.	.	.
32FF#/	.	.	.	.	.	.	.	.	.	.	.	.	.	.	.	.	.	.	.	.	.	.	.
32FF#/	.	.	.	.	.	.	.	.	.	.	.	.	.	.	.	.	.	.	.	.	.	.	.
32FF#/	.	.	.	.	.	.	.	.	.	.	.	.	.	.	.	.	.	.	.	.	.	.	.
32FF#/	.	.	.	.	.	.	.	.	.	.	.	.	.	.	.	.	.	.	.	.	.	.	.
32FF#/	.	.	.	.	.	.	.	.	.	.	.	.	.	.	.	.	.	.	.	.	.	.	.
32FF#/	.	.	.	.	.	.	.	.	.	.	.	.	.	.	.	.	.	.	.	.	.	.	.
32FF#/JJJ	.	.	.	.	.	.	.	.	.	.	.	.	.	.	.	.	.	.	.	.	.	.	.
*	*v	*v	*	*	*	*	*	*	*	*	*	*	*	*	*	*	*	*	*	*	*	*	*
*	*	*v	*v	*	*	*	*	*	*	*	*	*	*	*	*	*	*	*	*	*	*	*
=132	=132	=132	=132	=132	=132	=132	=132	=132	=132	=132	=132	=132	=132	=132	=132	=132	=132	=132	=132	=132	=132
!	!	!LO:N:vis=2	!	!	!	!	!	!	!	!	!	!	!	!	!	!	!	!	!	!	!
32FF#^/LLL	1A 1F#_ 1C# 1FF#_>	2.a 2.f# 2.c#/	.	4.A\	Sal-	.	.	4.A/yy	Sal-	.	.	4.a/yy	Sal-	.	4.a/	Sal-	.	.	1ryy	.	.
32FF#/	.	.	.	.	.	.	.	.	.	.	.	.	.	.	.	.	.	.	.	.	.
32FF#/	.	.	.	.	.	.	.	.	.	.	.	.	.	.	.	.	.	.	.	.	.
32FF#/	.	.	.	.	.	.	.	.	.	.	.	.	.	.	.	.	.	.	.	.	.
32FF#/	.	.	.	.	.	.	.	.	.	.	.	.	.	.	.	.	.	.	.	.	.
32FF#/	.	.	.	.	.	.	.	.	.	.	.	.	.	.	.	.	.	.	.	.	.
32FF#/	.	.	.	.	.	.	.	.	.	.	.	.	.	.	.	.	.	.	.	.	.
32FF#/	.	.	.	.	.	.	.	.	.	.	.	.	.	.	.	.	.	.	.	.	.
32FF#/	.	.	.	.	.	.	.	.	.	.	.	.	.	.	.	.	.	.	.	.	.
32FF#/	.	.	.	.	.	.	.	.	.	.	.	.	.	.	.	.	.	.	.	.	.
32FF#/	.	.	.	.	.	.	.	.	.	.	.	.	.	.	.	.	.	.	.	.	.
32FF#/	.	.	.	.	.	.	.	.	.	.	.	.	.	.	.	.	.	.	.	.	.
32FF#/	.	.	.	8A\	-va-	.	.	8A/yy	-va-	.	.	8a/yy	-va-	.	8a/	-va-	.	.	.	.	.
32FF#/	.	.	.	.	.	.	.	.	.	.	.	.	.	.	.	.	.	.	.	.	.
32FF#/	.	.	.	.	.	.	.	.	.	.	.	.	.	.	.	.	.	.	.	.	.
32FF#/	.	.	.	.	.	.	.	.	.	.	.	.	.	.	.	.	.	.	.	.	.
32FF#/	.	.	.	4A\	-to-	.	.	4A/yy	-to-	.	.	4a/yy	-to-	.	4a/	-to-	.	.	.	.	.
32FF#/	.	.	.	.	.	.	.	.	.	.	.	.	.	.	.	.	.	.	.	.	.
32FF#/	.	.	.	.	.	.	.	.	.	.	.	.	.	.	.	.	.	.	.	.	.
32FF#/	.	.	.	.	.	.	.	.	.	.	.	.	.	.	.	.	.	.	.	.	.
32FF#/	.	.	.	.	.	.	.	.	.	.	.	.	.	.	.	.	.	.	.	.	.
32FF#/	.	.	.	.	.	.	.	.	.	.	.	.	.	.	.	.	.	.	.	.	.
32FF#/	.	.	.	.	.	.	.	.	.	.	.	.	.	.	.	.	.	.	.	.	.
32FF#/	.	.	.	.	.	.	.	.	.	.	.	.	.	.	.	.	.	.	.	.	.
!	!	!	!	!	!	!	!	!	!	!	!LO:DY:a:rj	!	!	!LO:DY:a:rj	!	!	!	!LO:DY:a:rj	!	!	!
32FF#/	.	4f#/	.	4F#\	-rem	.	.	4F#/yy	-rem	.	fy	4f#/yy	-rem	fy	4f#/	-rem	.	f	.	.	.
*	*	*	*	*	*Xij	*	*	*	*	*	*	*	*	*	*	*	*	*	*	*	*
32FF#/	.	.	.	.	.	.	.	.	.	.	.	.	.	.	.	.	.	.	.	.	.
32FF#/	.	.	.	.	.	.	.	.	.	.	.	.	.	.	.	.	.	.	.	.	.
32FF#/	.	.	.	.	.	.	.	.	.	.	.	.	.	.	.	.	.	.	.	.	.
32FF#/	.	.	.	.	.	.	.	.	.	.	.	.	.	.	.	.	.	.	.	.	.
32FF#/	.	.	.	.	.	.	.	.	.	.	.	.	.	.	.	.	.	.	.	.	.
32FF#/	.	.	.	.	.	.	.	.	.	.	.	.	.	.	.	.	.	.	.	.	.
32FF#/JJJ	.	.	.	.	.	.	.	.	.	.	.	.	.	.	.	.	.	.	.	.	.
=133	=133	=133	=133	=133	=133	=133	=133	=133	=133	=133	=133	=133	=133	=133	=133	=133	=133	=133	=133	=133	=133
*	*^	*^	*	*	*	*	*	*	*	*	*	*	*	*	*	*	*	*	*	*	*
!	!	!	!	!	!	!	!	!	!LO:DY:a:rj	!	!	!	!	!	!	!	!	!	!	!	!	!	!
32FF#^/LLL	2d 2A/	1F#] 1FF#]	2dd/	(2a 2f#\	.	2d^\	tu-	.	f	2d^\	.	.	.	2d^/	.	.	2dd^\	tu-	.	.	1ryy	.	.
32FF#/	.	.	.	.	.	.	.	.	.	.	.	.	.	.	.	.	.	.	.	.	.	.	.
32FF#/	.	.	.	.	.	.	.	.	.	.	.	.	.	.	.	.	.	.	.	.	.	.	.
32FF#/	.	.	.	.	.	.	.	.	.	.	.	.	.	.	.	.	.	.	.	.	.	.	.
32FF#/	.	.	.	.	.	.	.	.	.	.	.	.	.	.	.	.	.	.	.	.	.	.	.
32FF#/	.	.	.	.	.	.	.	.	.	.	.	.	.	.	.	.	.	.	.	.	.	.	.
32FF#/	.	.	.	.	.	.	.	.	.	.	.	.	.	.	.	.	.	.	.	.	.	.	.
32FF#/	.	.	.	.	.	.	.	.	.	.	.	.	.	.	.	.	.	.	.	.	.	.	.
32FF#/	.	.	.	.	.	.	.	.	.	.	.	.	.	.	.	.	.	.	.	.	.	.	.
32FF#/	.	.	.	.	.	.	.	.	.	.	.	.	.	.	.	.	.	.	.	.	.	.	.
32FF#/	.	.	.	.	.	.	.	.	.	.	.	.	.	.	.	.	.	.	.	.	.	.	.
32FF#/	.	.	.	.	.	.	.	.	.	.	.	.	.	.	.	.	.	.	.	.	.	.	.
32FF#/	.	.	.	.	.	.	.	.	.	.	.	.	.	.	.	.	.	.	.	.	.	.	.
32FF#/	.	.	.	.	.	.	.	.	.	.	.	.	.	.	.	.	.	.	.	.	.	.	.
32FF#/	.	.	.	.	.	.	.	.	.	.	.	.	.	.	.	.	.	.	.	.	.	.	.
32FF#/	.	.	.	.	.	.	.	.	.	.	.	.	.	.	.	.	.	.	.	.	.	.	.
32FF#/	2c#/	.	[2cc#/	4a#X 4f##X 4e\	.	4c#\	-um.	.	.	4c#\	.	.	.	4c#/	.	.	4cc#\	-um.	.	.	.	.	.
32FF#/	.	.	.	.	.	.	.	.	.	.	.	.	.	.	.	.	.	.	.	.	.	.	.
32FF#/	.	.	.	.	.	.	.	.	.	.	.	.	.	.	.	.	.	.	.	.	.	.	.
32FF#/	.	.	.	.	.	.	.	.	.	.	.	.	.	.	.	.	.	.	.	.	.	.	.
32FF#/	.	.	.	.	.	.	.	.	.	.	.	.	.	.	.	.	.	.	.	.	.	.	.
32FF#/	.	.	.	.	.	.	.	.	.	.	.	.	.	.	.	.	.	.	.	.	.	.	.
32FF#/	.	.	.	.	.	.	.	.	.	.	.	.	.	.	.	.	.	.	.	.	.	.	.
32FF#/	.	.	.	.	.	.	.	.	.	.	.	.	.	.	.	.	.	.	.	.	.	.	.
32FF#/	.	.	.	4b 4g# 4e#X\)	.	4r	.	.	.	4r	.	.	.	4r	.	.	4r	.	.	.	.	.	.
32FF#/	.	.	.	.	.	.	.	.	.	.	.	.	.	.	.	.	.	.	.	.	.	.	.
32FF#/	.	.	.	.	.	.	.	.	.	.	.	.	.	.	.	.	.	.	.	.	.	.	.
32FF#/	.	.	.	.	.	.	.	.	.	.	.	.	.	.	.	.	.	.	.	.	.	.	.
32FF#/	.	.	.	.	.	.	.	.	.	.	.	.	.	.	.	.	.	.	.	.	.	.	.
32FF#/	.	.	.	.	.	.	.	.	.	.	.	.	.	.	.	.	.	.	.	.	.	.	.
32FF#/	.	.	.	.	.	.	.	.	.	.	.	.	.	.	.	.	.	.	.	.	.	.	.
!LO:TX:t=P:problem=partia kończy się w takcie nr 133	!	!	!	!	!	!	!	!	!	!	!	!	!	!	!	!	!	!	!	!	!	!	!
32FF#/JJJ	.	.	.	.	.	.	.	.	.	.	.	.	.	.	.	.	.	.	.	.	.	.	.
*Xtremolo	*	*	*	*	*	*	*	*	*	*	*	*	*	*	*	*	*	*	*	*	*	*	*
*	*	*	*v	*v	*	*	*	*	*	*	*	*	*	*	*	*	*	*	*	*	*	*	*
!!LO:PB:g=original
=134	=134	=134	=134	=134	=134	=134	=134	=134	=134	=134	=134	=134	=134	=134	=134	=134	=134	=134	=134	=134	=134	=134
!	!	!	!LO:TX:a:t=P:problem=brak zakończenia ligatury	!LO:DY:rj	!	!	!	!LO:DY:a:rj	!	!	!	!LO:DY:a:rj	!	!	!LO:DY:a:rj	!	!	!	!LO:DY:a:rj	!	!	!
1ryy	4F#/	4FF#\	2cc#_ [>2a/	mf	(4F#\	.	.	f	4F#/	tu	.	f	[2a^/	.	f	[2cc#^\	tu	.	f	1ryy	.	.
.	8G#/L	8GG#\L	.	.	8G#\L	.	.	.	8G#/L	.	.	.	.	.	.	.	.	.	.	.	.	.
.	8A/J	8AA\J	.	.	8A\J)	.	.	.	8A/J	.	.	.	.	.	.	.	.	.	.	.	.	.
.	4B/	4BB\	8cc#]L 8a/]	.	4B\	.	.	.	4B\	sus-	.	.	8a/L]	.	.	8cc#\L]	.	.	.	.	.	.
.	.	.	8b 8g#/	.	.	.	.	.	.	.	.	.	8g#/J	.	.	8b\J	.	.	.	.	.	.
.	4c#/	4C#\	8a 8f#/	.	4c#\	.	.	.	4c#\	-pen-	.	.	8f#/	.	.	8a/	sus-	.	.	.	.	.
.	.	.	8g#J 8e#X/	.	.	.	.	.	.	.	.	.	8e#X/	.	.	8g#/	-pen-	.	.	.	.	.
=135	=135	=135	=135	=135	=135	=135	=135	=135	=135	=135	=135	=135	=135	=135	=135	=135	=135	=135	=135	=135	=135	=135
*	*	*	*^	*	*	*	*	*	*	*	*	*	*	*	*	*	*	*	*	*	*	*
1ryy	2.d/	2.D\	4f#/	2f#\	.	2.d\	.	.	.	2.d\	-di-	.	.	4f#/	.	.	4f#/	-di-	.	.	1ryy	.	.
.	.	.	8g#/L	.	.	.	.	.	.	.	.	.	.	4f#/	.	.	8g#/L	-sti	.	.	.	.	.
.	.	.	8a/J	.	.	.	.	.	.	.	.	.	.	.	.	.	8a/J	.	.	.	.	.	.
.	.	.	4b/	2r	.	.	.	.	.	.	.	.	.	4f#/	.	.	4b\	Sal-	.	.	.	.	.
.	4c#/	4C#\	4cc#/	.	.	4c#\	.	.	.	4c#\	-sti	.	.	4c#/	.	.	4cc#\	-va-	.	.	.	.	.
=136	=136	=136	=136	=136	=136	=136	=136	=136	=136	=136	=136	=136	=136	=136	=136	=136	=136	=136	=136	=136	=136	=136	=136
*	*	*	*	*^	*	*	*	*	*	*	*	*	*	*	*	*	*	*	*	*	*	*	*
1ryy	4F#/	4FF#\	[2ff#/	4cc# 4a\	2ryy	.	4F#\	.	.	.	4F#/	Sal-	.	.	4a^/	to-	.	[2ff#^\	-to-	.	.	1ryy	.	.
.	8G#/L	8GG#\L	.	8bL 8g#\	.	.	8G#\L	.	.	.	8G#/L	-va-	.	.	8g#/L	-rem	.	.	.	.	.	.	.	.
.	8A/J	8AA\J	.	8aJ 8f#\	.	.	8A\J	.	.	.	8A/J	.	.	.	8f#/J	.	.	.	.	.	.	.	.	.
.	4B/	4BB\	8ff#/L]	2g#/	4f#\	.	4B\	.	.	.	4B\	-to-	.	.	(4f#/	tu	.	8ff#\L]	.	.	.	.	.	.
.	.	.	8dd/	.	.	.	.	.	.	.	.	.	.	.	.	.	.	8dd\J	.	.	.	.	.	.
.	4c#/	4C#\	8cc#/	.	4e#X\	.	4c#\	.	.	.	4c#\	-rem	.	.	4e#X/)	.	.	8cc#\L	rem	.	.	.	.	.
.	.	.	8b/J	.	.	.	.	.	.	.	.	.	.	.	.	.	.	8b\J	.	.	.	.	.	.
*	*	*	*	*v	*v	*	*	*	*	*	*	*	*	*	*	*	*	*	*	*	*	*	*	*
=137	=137	=137	=137	=137	=137	=137	=137	=137	=137	=137	=137	=137	=137	=137	=137	=137	=137	=137	=137	=137	=137	=137	=137
1ryy	4.d/	4.D\	4a/	4.f#\	.	4.d\	.	.	.	4.d\	tu-	.	.	4.f#/	.	.	4a/	tu-	.	.	1ryy	.	.
.	.	.	8b/L	.	.	.	.	.	.	.	.	.	.	.	.	.	8b\L	-um,	.	.	.	.	.
*	*	*	*	*	*	*	*	*	*	*	*ij	*	*	*	*	*	*	*	*	*	*	*	*
.	8c#/	8C#\	8cc#/J	8en\	.	8c#\	.	.	.	8e\	-um,	.	.	8a/	.	.	8cc#\J	.	.	.	.	.	.
.	4B/	4BB\	4dd 4f# 4d/	2ryy	.	4B\	.	.	.	4d\	in	.	.	4f#/	.	.	4dd\	in	.	.	.	.	.
.	8A/L	8AA\L	4ee 4cc# 4a/	.	.	8A\L	.	.	.	4c#\	pa-	.	.	4a/	.	.	4ee\	pa-	.	.	.	.	.
.	8G#/J	8GG#\J	.	.	.	8G#\J	.	.	.	.	.	.	.	.	.	.	.	.	.	.	.	.	.
=138	=138	=138	=138	=138	=138	=138	=138	=138	=138	=138	=138	=138	=138	=138	=138	=138	=138	=138	=138	=138	=138	=138	=138
1ryy	2Gn/	2GGn\	4ee/	2a [2e\	.	4Gn\	.	.	.	4c#\	-ti-	.	.	4a/	.	.	(4ee\	-ti-	.	.	1ryy	.	.
.	.	.	8dd/L	.	.	8G\	.	.	.	8d\	-bu-	.	.	8a/	.	.	8dd\)	.	.	.	.	.	.
.	.	.	8cc#/J	.	.	8G\	.	.	.	8e\	-lo	.	.	8a/	.	.	8cc#\	-bu-	.	.	.	.	.
!	!	!	!	!	!	!	!	!	!	!LO:SIC:v:s=4d\	!	!	!	!	!	!	!	!	!	!	!	!	!
.	2F#/	2FF#\	4dd 4a/	4e\]	.	4F#\	.	.	.	4e\	cru-	.	.	4a/	.	.	4cc#\	-lo	.	.	.	.	.
.	.	.	8a/L	4d\	.	4F#\	.	.	.	4d\	-cis	.	.	4a/	.	.	8a/L	cru-	.	.	.	.	.
*	*	*	*	*	*	*	*	*	*	*	*Xij	*	*	*	*	*	*	*	*	*	*	*	*
.	.	.	8b/J	.	.	.	.	.	.	.	.	.	.	.	.	.	8b/J	-cis	.	.	.	.	.
!!LO:LB:g=original
=139	=139	=139	=139	=139	=139	=139	=139	=139	=139	=139	=139	=139	=139	=139	=139	=139	=139	=139	=139	=139	=139	=139	=139
1ryy	4E/	4EE\	4cc# 4a/	2e\	.	4E\	.	.	.	4e\	.	.	.	4a/	.	.	4cc#\	tu	.	.	1ryy	.	.
.	4A/	4AA\	8ddL 8b/	.	.	8A\	.	.	.	8e\	.	.	.	8b\	.	.	8dd\	sus-	.	.	.	.	.
.	.	.	8eeJ 8cc#/	.	.	8A\	.	.	.	8e\	.	.	.	8cc#\	.	.	8ee\	-pen-	.	.	.	.	.
.	4d/	4D\	4ff# 4a/	4f#\	.	4d\	.	.	.	4d\	.	.	.	4a/	.	.	4ff#\	-di-	.	.	.	.	.
.	8c#/L	8C#\L	4ff#/	8a\L	.	8c#\L	.	.	.	4f#\	.	.	.	8a/L	.	.	4ff#\	-sti	.	.	.	.	.
.	8B/J	8BB\J	.	8b\J	.	8B\J	.	.	.	.	.	.	.	8b/J	.	.	.	.	.	.	.	.	.
=140	=140	=140	=140	=140	=140	=140	=140	=140	=140	=140	=140	=140	=140	=140	=140	=140	=140	=140	=140	=140	=140	=140	=140
1ryy	4A^/	4AA\	4ff#^/	4cc# 4f#\	.	4A^\	.	.	.	4f#^\	.	.	.	4cc#^/	.	.	4ff#^\	Sal-	.	.	1ryy	.	.
.	4B 4F#^/	4BB\	4dd 4b 4f#^>/	4ryy	.	4B^\	.	.	.	4f#^\	.	.	.	4b^/	.	.	4dd^\	-va-	.	.	.	.	.
.	4c# 4G#^/	4C#\	4cc# 4a 4f#^>/	2ryy	.	4c#^\	.	.	.	4f#^\	.	.	.	4a^/	.	.	4cc#^\	-to-	.	.	.	.	.
.	4d 4F#^/	4D\	4b 4f#^>/	.	.	4d^\	.	.	.	4d^\	.	.	.	4f#^/	.	.	4b^\	-rem	.	.	.	.	.
=141	=141	=141	=141	=141	=141	=141	=141	=141	=141	=141	=141	=141	=141	=141	=141	=141	=141	=141	=141	=141	=141	=141	=141
1ryy	2C#/	2C#\	(2a 2f#/	1c#	.	(2c#^\	.	.	.	1c#^	.	.	.	(2f#^/	.	.	(2a^/	tu-	.	.	1ryy	.	.
.	2C#/	2CC#\	2g# 2e#X/)	.	.	2C#/)	.	.	.	.	.	.	.	2e#X/)	.	.	2g#/)	.	.	.	.	.	.
*	*	*	*v	*v	*	*	*	*	*	*	*	*	*	*	*	*	*	*	*	*	*	*	*
=142	=142	=142	=142	=142	=142	=142	=142	=142	=142	=142	=142	=142	=142	=142	=142	=142	=142	=142	=142	=142	=142	=142
1ryy	4.F#/	4FF#\	4.f#/	.	4F#\	.	.	.	4F#/	.	.	.	4f#/	.	.	4f#/	-um.	.	.	1ryy	.	.
.	.	4r	.	.	4r	.	.	.	4r	.	.	.	4r	.	.	4r	.	.	.	.	.	.
.	8C#/	.	8c#/	.	.	.	.	.	.	.	.	.	.	.	.	.	.	.	.	.	.	.
.	8AA/L	2r	8A/L	.	2r	.	.	.	2r	.	.	.	2r	.	.	2r	.	.	.	.	.	.
.	8C#/	.	8c#/	.	.	.	.	.	.	.	.	.	.	.	.	.	.	.	.	.	.	.
.	8F#/	.	8f#/	.	.	.	.	.	.	.	.	.	.	.	.	.	.	.	.	.	.	.
.	8A/J	.	8a/J	.	.	.	.	.	.	.	.	.	.	.	.	.	.	.	.	.	.	.
=143	=143	=143	=143	=143	=143	=143	=143	=143	=143	=143	=143	=143	=143	=143	=143	=143	=143	=143	=143	=143	=143	=143
1ryy	2F#^</	2FF#\	2cc# 2a 2f#^/	.	1r	.	.	.	1r	.	.	.	1r	.	.	1r	.	.	.	1ryy	.	.
.	2F#^</	2FF#\	2a 2f# 2c#^/	.	.	.	.	.	.	.	.	.	.	.	.	.	.	.	.	.	.	.
*	*v	*v	*	*	*	*	*	*	*	*	*	*	*	*	*	*	*	*	*	*	*	*
=144	=144	=144	=144	=144	=144	=144	=144	=144	=144	=144	=144	=144	=144	=144	=144	=144	=144	=144	=144	=144	=144
!	!	!LO:TX:b:t=II. 72.\nIII	!	!	!	!	!	!	!	!	!	!	!	!	!	!	!	!	!	!	!
1ryy	1C# 1FF#^;	1f# 1A^;	.	1r;	.	.	.	1r;	.	.	.	1r;	.	.	1r;	.	.	.	1ryy	.	.
==	==	==	==	==	==	==	==	==	==	==	==	==	==	==	==	==	==	==	==	==	==
*-	*-	*-	*-	*-	*-	*-	*-	*-	*-	*-	*-	*-	*-	*-	*-	*-	*-	*-	*-	*-	*-
!!!system-decoration: (<s1>[s2,s3,s4,s5]{s6,s7}<s8>)
!!!RDF**kern: > = above
!!!RDF**kern: < = below
!!!RDF**kern: | = vertical stroke
!!!RDF**kern: N = linked
!!!ENC: Andrzej Kubiczek
!!!END: 2021-08-19
!!!ENC: Andrzej Kubiczek
!!!END: 2021-07-24
